!!!!SEGMENT: pl-wtm--r-711-m--003_moniuszko-stanislaw--litania-ostrobramska-ora-pro-nobis.krn
!!!cenid: 18xx:1737
!!!COM: Moniuszko, Stanisław
!!!COM-rismid: pe30008351
!!!CDT: 1819/05/05-1872/06/04
!!!CNT: Polish
!!!OPR: Litania Ostrobramska
!!!OTL: Ora pro nobis
!!!OMV: 003
!!!PDT: 1849
!!!AGN: Sacred; Mass
!!!SMS-siglum: PL-Wtm
!!!SMS-shelfmark: R 711/M
!!!SMS-shelfwork: 001-003 M
!!!SMS-variant:
!!!SMS-altvar:
!!!NIFC-rismid: 1001091106
!!!URL-scan: http://repozytorium.nifc.pl/skany/pl-wtm-nut--r711m
!!!ONB-nifc: UWAGA: części Litanii: 1. Kyrie, 2. Christe audi nos, 3. Ora pro nobis, 4. Rosa mistica, 5. Agnus Dei
**kern	**dynam	**kern	**dynam	**kern	**text	**text	**dynam	**kern	**text	**text	**dynam	**kern	**text	**dynam	**kern	**text	**dynam	**kern	**dynam	**kern	**dynam	**kern	**dynam	**kern	**dynam	**kern	**dynam	**kern	**dynam	**kern	**dynam	**kern	**dynam
*part14	*part14	*part13	*part13	*part12	*part12	*part12	*part12	*part11	*part11	*part11	*part11	*part10	*part10	*part10	*part9	*part9	*part9	*part8	*part8	*part7	*part7	*part6	*part6	*part5	*part5	*part4	*part4	*part3	*part3	*part2	*part2	*part1	*part1
*group4	*	*group4	*	*group3	*	*	*	*group3	*	*	*	*group3	*	*	*group3	*	*	*group2	*	*group2	*	*group2	*	*	*	*group1	*	*group1	*	*group1	*	*group1	*
*	*	*	*	*	*	*	*	*	*	*	*	*I""Coro	*	*	*	*	*	*	*	*	*	*	*	*	*	*	*	*	*	*	*	*	*
*staff14	*	*staff13	*	*staff12	*staff12	*staff12	*	*staff11	*staff11	*staff11	*	*staff10	*staff10	*	*staff9	*staff9	*	*staff8	*	*staff7	*	*staff6	*	*staff5	*	*staff4	*	*staff3	*	*staff2	*	*staff1	*
*Icbass	*	*Icello	*	*Iempty	*	*	*	*Iempty	*	*	*	*Iempty	*	*	*Iempty	*	*	*Iviola	*	*Ivioln	*	*Ivioln	*	*Icor	*	*Ifagot	*	*Iclars	*	*Ioboe	*	*Iflt	*
*I"Cbs.	*	*I"Vcello.	*	*	*	*	*	*	*	*	*	*	*	*	*	*	*	*I"Vla.	*	*I"V. 2.	*	*I"V. I.	*	*I"Corni.	*	*I"Fagotto.	*	*I"Clarinetti: [[in B.]]	*	*I"Oboe	*	*I"Flauti.	*
*I'cb	*	*I'vlc	*	*	*	*	*	*	*	*	*	*	*	*	*	*	*	*I'vla	*	*I'vl II	*	*I'vl I	*	*I'cor I, II in B♭	*	*I'fag	*	*I'cl I, II in C	*	*I'ob	*	*I'fl I, II	*
*clefF4	*	*clefF4	*	*clefF4	*	*	*	*clefC4	*	*	*	*clefC3	*	*	*clefC1	*	*	*clefC3	*	*clefG2	*	*clefG2	*	*clefG2	*	*clefF4	*	*clefG2	*	*clefG2	*	*clefG2	*
*ITrd0c0	*	*	*	*	*	*	*	*	*	*	*	*	*	*	*	*	*	*	*	*	*	*	*	*ITrd1c2	*	*	*	*	*	*	*	*	*
*k[b-e-]	*	*k[b-e-]	*	*k[b-e-]	*	*	*	*k[b-e-]	*	*	*	*k[b-e-]	*	*	*k[b-e-]	*	*	*k[b-e-]	*	*k[b-e-]	*	*k[b-e-]	*	*k[b-e-]	*	*k[b-e-]	*	*k[]	*	*k[b-e-]	*	*k[b-e-]	*
*B-:	*	*B-:	*	*B-:	*	*	*	*B-:	*	*	*	*B-:	*	*	*B-:	*	*	*B-:	*	*B-:	*	*B-:	*	*B-:	*	*B-:	*	*B-:	*	*B-:	*	*B-:	*
*M4/4	*	*M4/4	*	*M4/4	*	*	*	*M4/4	*	*	*	*M4/4	*	*	*M4/4	*	*	*M4/4	*	*M4/4	*	*M4/4	*	*M4/4	*	*M4/4	*	*M4/4	*	*M4/4	*	*M4/4	*
*met(c)	*	*met(c)	*	*met(c)	*	*	*	*met(c)	*	*	*	*met(c)	*	*	*met(c)	*	*	*met(c)	*	*met(c)	*	*met(c)	*	*met(c)	*	*met(c)	*	*met(c)	*	*met(c)	*	*met(c)	*
=1	=1	=1	=1	=1	=1	=1	=1	=1	=1	=1	=1	=1	=1	=1	=1	=1	=1	=1	=1	=1	=1	=1	=1	=1	=1	=1	=1	=1	=1	=1	=1	=1	=1
*	*	*	*	*	*	*	*	*	*	*	*	*	*	*	*	*	*	*	*	*	*	*	*	*	*	*	*	*^	*	*	*	*	*
!	!	!	!	!	!	!	!	!	!	!	!	!	!	!	!	!	!	!	!	!	!	!	!	!	!	!	!	!	!	!	!	!	!LO:TX:t=P:problem:zakończenie łuku na dole na początku pięciolinii	!
!	!	!	!	!	!	!	!	!LO:TX:t=P:problem:znaki: B- E-	!	!	!	!	!	!	!LO:TX:t=P:problem:znaki: błędnie g- zamiast b-	!	!	!	!	!	!	!	!	!	!	!LO:TX:a:t=Solo.	!	!LO:SIC:v:s=4b-	!	!	!	!	!LO:TX:a:i:t=Allegro Moderato.	!
!	!	!LO:TX:b:t=pizzi.	!	!	!	!	!	!	!	!	!	!	!	!	!	!	!	!	!LO:DY:rj:t=p	!	!LO:DY:rj:t=p	!	!	!	!	!	!LO:DY:t=p	!	!	!	!	!	!LO:TX:a:i:t=No 3.	!
8r	.	8r	.	4BB-/	....re.	.	.	4B-\	....re.	.	.	4B-/	....re.	.	4d/	....re.	.	8B-/L|	p	8d/L|	p	1r	.	1r	.	(1B-	p	4b/	1r	.	1r	.	4b-/	.
!LO:TX:b:t=pizzi.	!	!	!	!	!	!	!	!	!	!	!	!	!	!	!	!	!	!	!	!	!	!	!	!	!	!	!	!LO:TX:a:t=muta in B.	!	!	!	!	!	!
8F\L	.	8FF/L	.	.	.	.	.	.	.	.	.	.	.	.	.	.	.	8B-/|	.	8d/|	.	.	.	.	.	.	.	.	.	.	.	.	.	.
8B-\J	.	8BB-/J	.	4r	.	.	.	4r	.	.	.	4r	.	.	4r	.	.	8B-/|	.	8d/|	.	.	.	.	.	.	.	4r	.	.	.	.	4r	.
8r	.	8r	.	.	.	.	.	.	.	.	.	.	.	.	.	.	.	8B-/J|	.	8d/J|	.	.	.	.	.	.	.	.	.	.	.	.	.	.
8r	.	8r	.	2r	.	.	.	2r	.	.	.	2r	.	.	2r	.	.	(8d^/L	.	(8f^/L	.	.	.	.	.	.	.	2r	.	.	.	.	2r	.
8F\L	.	8FF/L	.	.	.	.	.	.	.	.	.	.	.	.	.	.	.	8B-/J)	.	8d/)	.	.	.	.	.	.	.	.	.	.	.	.	.	.
8B-\J	.	8BB-/J	.	.	.	.	.	.	.	.	.	.	.	.	.	.	.	8B-/L	.	8d/	.	.	.	.	.	.	.	.	.	.	.	.	.	.
8r	.	8r	.	.	.	.	.	.	.	.	.	.	.	.	.	.	.	8B-/J	.	8d/J	.	.	.	.	.	.	.	.	.	.	.	.	.	.
*	*	*	*	*	*	*	*	*	*	*	*	*	*	*	*	*	*	*	*	*	*	*	*	*	*	*	*	*v	*v	*	*	*	*	*
=2	=2	=2	=2	=2	=2	=2	=2	=2	=2	=2	=2	=2	=2	=2	=2	=2	=2	=2	=2	=2	=2	=2	=2	=2	=2	=2	=2	=2	=2	=2	=2	=2	=2
*	*	*	*	*	*	*	*	*	*	*	*	*	*	*	*	*	*	*	*	*	*	*	*	*	*	*	*	*ITrd1c2	*	*	*	*	*
*	*	*	*	*	*	*	*	*	*	*	*	*	*	*	*	*	*	*	*	*	*	*	*	*	*	*	*	*k[b-e-]	*	*	*	*	*
*rep	*	*rep	*	*	*	*	*	*	*	*	*	*	*	*	*	*	*	*rep	*	*rep	*	*	*	*	*	*2\right	*	*	*	*	*	*	*
8r	.	8r	.	1r	.	.	.	1r	.	.	.	1r	.	.	1r	.	.	8B-/L|	.	8d/L|	.	1r	.	1r	.	2.F\	.	1r	.	1r	.	1r	.
8F\L	.	8FF/L	.	.	.	.	.	.	.	.	.	.	.	.	.	.	.	8B-/|	.	8d/|	.	.	.	.	.	.	.	.	.	.	.	.	.
8B-\J	.	8BB-/J	.	.	.	.	.	.	.	.	.	.	.	.	.	.	.	8B-/|	.	8d/|	.	.	.	.	.	.	.	.	.	.	.	.	.
8r	.	8r	.	.	.	.	.	.	.	.	.	.	.	.	.	.	.	8B-/J|	.	8d/J|	.	.	.	.	.	.	.	.	.	.	.	.	.
8r	.	8r	.	.	.	.	.	.	.	.	.	.	.	.	.	.	.	(8d^/L	.	(8f^/L	.	.	.	.	.	.	.	.	.	.	.	.	.
!	!	!	!	!	!	!	!	!	!	!	!	!	!	!	!	!	!	!	!	!	!	!	!	!	!	!	!	!	!	!LO:TX:a:t=Solo.	!	!	!
8F\L	.	8FF/L	.	.	.	.	.	.	.	.	.	.	.	.	.	.	.	8B-/J)	.	8d/)	.	.	.	.	.	.	.	.	.	.	.	.	.
8B-\J	.	8BB-/J	.	.	.	.	.	.	.	.	.	.	.	.	.	.	.	8B-/L	.	8d/	.	.	.	.	.	4D\)	.	.	.	.	.	.	.
8r	.	8r	.	.	.	.	.	.	.	.	.	.	.	.	.	.	.	8B-/J	.	8d/J	.	.	.	.	.	.	.	.	.	.	p	.	.
*Xrep	*	*Xrep	*	*	*	*	*	*	*	*	*	*	*	*	*	*	*	*Xrep	*	*Xrep	*	*	*	*	*	*	*	*	*	*	*	*	*
=3	=3	=3	=3	=3	=3	=3	=3	=3	=3	=3	=3	=3	=3	=3	=3	=3	=3	=3	=3	=3	=3	=3	=3	=3	=3	=3	=3	=3	=3	=3	=3	=3	=3
*rep	*	*rep	*	*	*	*	*	*	*	*	*	*	*	*	*	*	*	*rep	*	*rep	*	*	*	*	*	*	*	*	*	*	*	*	*
8r	.	8r	.	1r	.	.	.	1r	.	.	.	1r	.	.	1r	.	.	8B-/L|	.	8d/L|	.	1r	.	1r	.	[1BB-	.	1r	.	(4.b-\	.	1r	.
8F\L	.	8FF/L	.	.	.	.	.	.	.	.	.	.	.	.	.	.	.	8B-/|	.	8d/|	.	.	.	.	.	.	.	.	.	.	.	.	.
8B-\J	.	8BB-/J	.	.	.	.	.	.	.	.	.	.	.	.	.	.	.	8B-/|	.	8d/|	.	.	.	.	.	.	.	.	.	.	.	.	.
8r	.	8r	.	.	.	.	.	.	.	.	.	.	.	.	.	.	.	8B-/J|	.	8d/J|	.	.	.	.	.	.	.	.	.	8cc\	.	.	.
8r	.	8r	.	.	.	.	.	.	.	.	.	.	.	.	.	.	.	(8d^/L	.	(8f^/L	.	.	.	.	.	.	.	.	.	4b-\	.	.	.
8F\L	.	8FF/L	.	.	.	.	.	.	.	.	.	.	.	.	.	.	.	8B-/J)	.	8d/)	.	.	.	.	.	.	.	.	.	.	.	.	.
8B-\J	.	8BB-/J	.	.	.	.	.	.	.	.	.	.	.	.	.	.	.	8B-/L	.	8d/	.	.	.	.	.	.	.	.	.	4f\	.	.	.
8r	.	8r	.	.	.	.	.	.	.	.	.	.	.	.	.	.	.	8B-/J	.	8d/J	.	.	.	.	.	.	.	.	.	.	.	.	.
*Xrep	*	*Xrep	*	*	*	*	*	*	*	*	*	*	*	*	*	*	*	*Xrep	*	*Xrep	*	*	*	*	*	*	*	*	*	*	*	*	*
=4	=4	=4	=4	=4	=4	=4	=4	=4	=4	=4	=4	=4	=4	=4	=4	=4	=4	=4	=4	=4	=4	=4	=4	=4	=4	=4	=4	=4	=4	=4	=4	=4	=4
*rep	*	*rep	*	*	*	*	*	*	*	*	*	*	*	*	*	*	*	*rep	*	*rep	*	*	*	*	*	*	*	*	*	*2\right	*	*	*
8r	.	8r	.	1r	.	.	.	1r	.	.	.	1r	.	.	1r	.	.	8B-/L|	.	8d/L|	.	1r	.	1r	.	2.BB-/]	.	1r	.	2.b-\)	.	1r	.
8F\L	.	8FF/L	.	.	.	.	.	.	.	.	.	.	.	.	.	.	.	8B-/|	.	8d/|	.	.	.	.	.	.	.	.	.	.	.	.	.
8B-\J	.	8BB-/J	.	.	.	.	.	.	.	.	.	.	.	.	.	.	.	8B-/|	.	8d/|	.	.	.	.	.	.	.	.	.	.	.	.	.
8r	.	8r	.	.	.	.	.	.	.	.	.	.	.	.	.	.	.	8B-/J|	.	8d/J|	.	.	.	.	.	.	.	.	.	.	.	.	.
8r	.	8r	.	.	.	.	.	.	.	.	.	.	.	.	.	.	.	(8d^/L	.	(8f^/L	.	.	.	.	.	.	.	.	.	.	.	.	.
8F\L	.	8FF/L	.	.	.	.	.	.	.	.	.	.	.	.	.	.	.	8B-/J)	.	8d/)	.	.	.	.	.	.	.	.	.	.	.	.	.
8B-\J	.	8BB-/J	.	.	.	.	.	.	.	.	.	.	.	.	.	.	.	8B-/L	.	8d/	.	.	.	.	.	4D\	.	.	.	(4b-\	.	.	.
8r	.	8r	.	.	.	.	.	.	.	.	.	.	.	.	.	.	.	8B-/J	.	8d/J	.	.	.	.	.	.	.	.	.	.	.	.	.
*Xrep	*	*Xrep	*	*	*	*	*	*	*	*	*	*	*	*	*	*	*	*Xrep	*	*Xrep	*	*	*	*	*	*	*	*	*	*	*	*	*
!!LO:LB:g=original
=5	=5	=5	=5	=5	=5	=5	=5	=5	=5	=5	=5	=5	=5	=5	=5	=5	=5	=5	=5	=5	=5	=5	=5	=5	=5	=5	=5	=5	=5	=5	=5	=5	=5
*	*	*	*	*	*	*	*	*	*	*	*	*	*	*	*	*	*	*tremolo	*	*tremolo	*	*	*	*	*	*	*	*	*	*	*	*	*
8r	.	8r	.	1ryy	.	.	.	1ryy	.	.	.	1ryy	.	.	1ryy	.	.	8B-/L	.	8d/L	.	1r	.	1r	.	[<1F	.	1ryy	.	4.dd\	.	1ryy	.
8F\L	.	8FF/L	.	.	.	.	.	.	.	.	.	.	.	.	.	.	.	8B-/	.	8d/	.	.	.	.	.	.	.	.	.	.	.	.	.
8B-\J	.	8BB-/J	.	.	.	.	.	.	.	.	.	.	.	.	.	.	.	8B-/	.	8d/	.	.	.	.	.	.	.	.	.	.	.	.	.
8r	.	8r	.	.	.	.	.	.	.	.	.	.	.	.	.	.	.	8B-/J	.	8d/J	.	.	.	.	.	.	.	.	.	8ee-\	.	.	.
8r	.	8r	.	.	.	.	.	.	.	.	.	.	.	.	.	.	.	(8d/L	.	(8f/L	.	.	.	.	.	.	.	.	.	4dd\	.	.	.
!	!	!	!	!	!	!	!	!	!	!	!	!	!	!	!	!	!	!	!	!	!	!	!	!	!	!	!	!LO:TX:b:t=1mo	!	!	!	!	!
8F\L	.	8FF/L	.	.	.	.	.	.	.	.	.	.	.	.	.	.	.	8B-/)	.	8d/)	.	.	.	.	.	.	.	.	.	.	.	.	.
8B-\J	.	8BB-/J	.	.	.	.	.	.	.	.	.	.	.	.	.	.	.	8B-/	.	8d/	.	.	.	.	.	.	.	.	.	4b-\	.	.	.
8r	.	8r	.	.	.	.	.	.	.	.	.	.	.	.	.	.	.	8B-/J	.	8d/J	.	.	.	.	.	.	.	.	.	.	.	.	.
=6	=6	=6	=6	=6	=6	=6	=6	=6	=6	=6	=6	=6	=6	=6	=6	=6	=6	=6	=6	=6	=6	=6	=6	=6	=6	=6	=6	=6	=6	=6	=6	=6	=6
!	!	!	!	!	!	!	!	!	!	!	!	!	!	!	!	!	!	!	!	!	!	!	!	!	!	!	!	!	!LO:DY:a	!	!	!	!
8r	.	8r	.	1ryy	.	.	.	1ryy	.	.	.	1ryy	.	.	1ryy	.	.	8B-/L	.	8d/L	.	1r	.	1r	.	2F\]	.	(>1B-	p	2.dd\)	.	1ryy	.
8F\L	.	8FF/L	.	.	.	.	.	.	.	.	.	.	.	.	.	.	.	8B-/	.	8d/	.	.	.	.	.	.	.	.	<	.	<	.	.
8B-\J	.	8BB-/J	.	.	.	.	.	.	.	.	.	.	.	.	.	.	.	8B-/	.	8d/	.	.	.	.	.	.	.	.	.	.	.	.	.
8r	.	8r	.	.	.	.	.	.	.	.	.	.	.	.	.	.	.	8B-/J	.	8d/J	.	.	.	.	.	.	.	.	.	.	.	.	.
8r	.	8r	.	.	.	.	.	.	.	.	.	.	.	.	.	.	.	(8d/L	.	(8b-/L	.	.	.	.	.	2F#X\	.	.	.	.	.	.	.
8F#X\L	.	8FF#X/L	.	.	.	.	.	.	.	.	.	.	.	.	.	.	.	8B-/)	.	8d/)	.	.	.	.	.	.	.	.	.	.	.	.	.
8B-X\J	.	8BB-X/J	.	.	.	.	.	.	.	.	.	.	.	.	.	.	.	8B-/	.	8d/	.	.	.	.	.	.	.	.	.	([<4dd\	[[	.	.
!	!	!	!	!	!	!	!	!	!	!	!	!	!	!	!	!	!	!	!	!	!	!	!	!	!LO:DY:t=f.	!	!	!	!LO:DY:t=f.	!	!	!	!
8r	.	8r	.	.	.	.	.	.	.	.	.	.	.	.	.	.	.	8B-/J	.	8d/J	.	.	.	.	f	.	<	.	[ f <	.	.	.	.
=7	=7	=7	=7	=7	=7	=7	=7	=7	=7	=7	=7	=7	=7	=7	=7	=7	=7	=7	=7	=7	=7	=7	=7	=7	=7	=7	=7	=7	=7	=7	=7	=7	=7
*	*	*	*	*	*	*	*	*	*	*	*	*	*	*	*	*	*	*	*	*	*	*	*	*	*	*	*	*^	*	*	*	*	*
*	*	*	*	*	*	*	*	*	*	*	*	*	*	*	*	*	*	*	*	*	*	*	*	*	*	*	*	*	*2\right	*	*	*	*	*
!	!	!	!	!	!	!	!	!	!	!	!	!	!	!	!	!	!	!	!	!	!	!	!	!	!	!	!	!	!	!	!	!LO:DY:t=f.	!	!
8r	.	8r	.	1ryy	.	.	.	1ryy	.	.	.	1ryy	.	.	1ryy	.	.	8B-/L	<	8d/L	<	1r	.	(2b-/	.	2G\	.	2b-/	2d\	[	4.dd\]	f	1ryy	.
!	!	!	!LO:DY:b:t=f.	!	!	!	!	!	!	!	!	!	!	!	!	!	!	!	!	!	!	!	!	!	!	!	!	!	!	!	!	!	!	!
8G\L	f	8GG/L	f	.	.	.	.	.	.	.	.	.	.	.	.	.	.	8B-/	.	8d/	.	.	.	.	.	.	[	.	.	>	.	.	.	.
8B-\J	.	8BB-/J	.	.	.	.	.	.	.	.	.	.	.	.	.	.	.	8B-/	[	8d/	.	.	.	.	.	.	.	.	.	.	.	.	.	.
8r	.	8r	.	.	.	.	.	.	.	.	.	.	.	.	.	.	.	8d/J	.	8b-/J	[	.	.	.	.	.	>	.	.	.	8ee-\	>	.	.
!	!	!	!	!	!	!	!	!	!	!	!	!	!	!	!	!	!	!	!	!	!LO:DY:t=f.	!	!	!	!	!	!	!	!	!	!	!	!	!
8r	.	8r	.	.	.	.	.	.	.	.	.	.	.	.	.	.	.	8f/L	f >	(8cc/L	f	.	.	2f/	.	2A\	.	2f/	2c\	.	4ff\	.	.	.
!	!	!LO:TX:t=P:problem:mixed beam	!	!	!	!	!	!	!	!	!	!	!	!	!	!	!	!	!	!	!	!	!	!	!	!	!	!	!	!	!	!	!	!
8A\L	.	8AA/L	.	.	.	.	.	.	.	.	.	.	.	.	.	.	.	8c/	.	8e-/)	>	.	.	.	.	.	.	.	.	.	.	.	.	.
8F\J	.	8F\J	.	.	.	.	.	.	.	.	.	.	.	.	.	.	.	8c/	.	8e-/	.	.	.	.	.	.	.	.	.	.	4cc\	]]	.	.
8r	.	8r	.	.	.	.	.	.	.	.	.	.	.	.	.	.	.	8c/J	]]	8e-/J	]]	.	.	.	.	.	]	.	.	]	.	.	.	.
=8	=8	=8	=8	=8	=8	=8	=8	=8	=8	=8	=8	=8	=8	=8	=8	=8	=8	=8	=8	=8	=8	=8	=8	=8	=8	=8	=8	=8	=8	=8	=8	=8	=8	=8
8r	.	8r	.	1ryy	.	.	.	1ryy	.	.	.	1ryy	.	.	1ryy	.	.	8B-/L	p	8d/L	p	1r	.	2.d/)	.	4B-\	.	[1B-)	4d\	.	2.dd\)	.	1r	.
!	!	!	!LO:HP:b	!	!	!	!	!	!	!	!	!	!	!	!	!	!	!	!	!	!	!	!	!	!	!	!	!	!	!	!	!	!	!
8BB-/L	>	8BB-/L	>	.	.	.	.	.	.	.	.	.	.	.	.	.	.	8B-/	.	8d/	.	.	.	.	.	.	.	.	.	.	.	.	.	.
8D/J	.	8D/J	.	.	.	.	.	.	.	.	.	.	.	.	.	.	.	8B-/	.	8d/	.	.	.	.	.	4r	.	.	4rc	.	.	.	.	.
8r	.	8r	.	.	.	.	.	.	.	.	.	.	.	.	.	.	.	8B-/J	.	8b-/J	.	.	.	.	.	.	.	.	.	.	.	.	.	.
!	!	!LO:TX:t=P:problem:brak 8r	!	!	!	!	!	!	!	!	!	!	!	!	!	!	!	!	!	!	!	!	!	!	!	!	!	!	!	!	!	!	!	!
8r	.	8ryy	.	.	.	.	.	.	.	.	.	.	.	.	.	.	.	(8d/L	.	(8b-^/L	.	.	.	.	.	(2G\	p	.	2rc	.	.	.	.	.
8GG/L	.	8GG/L	.	.	.	.	.	.	.	.	.	.	.	.	.	.	.	8B-/)	.	8d/)	.	.	.	.	.	.	.	.	.	.	.	.	.	.
8BB-/J	]	8BB-/J	]	.	.	.	.	.	.	.	.	.	.	.	.	.	.	8B-/	.	8d/	.	.	.	4r	.	.	.	.	.	pp	(4dd\	pp	.	p
8r	.	8r	.	.	.	.	.	.	.	.	.	.	.	.	.	.	.	8B-/J	.	8d/J	.	.	.	.	.	.	.	.	.	.	.	.	.	.
*	*	*	*	*	*	*	*	*	*	*	*	*	*	*	*	*	*	*	*	*	*	*	*	*	*	*	*	*v	*v	*	*	*	*	*
=9	=9	=9	=9	=9	=9	=9	=9	=9	=9	=9	=9	=9	=9	=9	=9	=9	=9	=9	=9	=9	=9	=9	=9	=9	=9	=9	=9	=9	=9	=9	=9	=9	=9
*	*	*	*	*	*	*	*	*	*	*	*	*	*	*	*	*	*	*	*	*	*	*	*	*	*	*	*	*	*	*	*	*^	*
!	!	!	!LO:DY:b:rj	!	!	!	!	!	!	!	!	!	!	!	!	!	!	!	!	!	!LO:DY:rj	!	!	!	!	!	!	!	!	!	!	!	!	!
8r	p	8r	p	1ryy	.	.	.	1ryy	.	.	.	1ryy	.	.	1ryy	.	.	8B-/L	.	8c/L	pp	1r	.	1r	.	2E-\	.	2B-/]	.	4.cc\	.	(<4g/	1re	.
8E-\L	.	8EE-/L	.	.	.	.	.	.	.	.	.	.	.	.	.	.	.	8B-/	.	8c/	.	.	.	.	.	.	.	.	.	.	.	.	.	.
8BB-\J	.	8BB-/J	.	.	.	.	.	.	.	.	.	.	.	.	.	.	.	8B-/	.	8c/	.	.	.	.	.	.	.	.	.	.	.	4g-X/	.	.
8r	.	8r	.	.	.	.	.	.	.	.	.	.	.	.	.	.	.	8B-/J	.	8c/	.	.	.	.	.	.	.	.	.	8dd\	.	.	.	.
8r	.	8r	.	.	.	.	.	.	.	.	.	.	.	.	.	.	.	8A/L	.	8c/	.	.	.	.	.	2F\	.	2A/	.	4cc\	.	2f/	.	.
!	!	!LO:TX:t=P:problem:mixed beam	!	!	!	!	!	!	!	!	!	!	!	!	!	!	!	!	!	!	!	!	!	!	!	!	!	!	!	!	!	!	!	!
8F\L	.	8FF/L	.	.	.	.	.	.	.	.	.	.	.	.	.	.	.	8A/	.	8c/J	.	.	.	.	.	.	.	.	.	.	.	.	.	.
*	*	*	*	*	*	*	*	*	*	*	*	*	*	*	*	*	*	*	*	*Xtremolo	*	*	*	*	*	*	*	*	*	*	*	*	*	*
8F\J	.	8F\J	.	.	.	.	.	.	.	.	.	.	.	.	.	.	.	8A/	.	8e-/L	.	.	.	.	.	.	.	.	.	4f/	.	.	.	.
8r	.	8r	.	.	.	.	.	.	.	.	.	.	.	.	.	.	.	8A/J	.	8e-/J	.	.	.	.	.	.	.	.	.	.	.	.	.	.
*	*	*	*	*	*	*	*	*	*	*	*	*	*	*	*	*	*	*	*	*	*	*	*	*	*	*	*	*	*	*	*	*v	*v	*
!!LO:LB:g=original
=10	=10	=10	=10	=10	=10	=10	=10	=10	=10	=10	=10	=10	=10	=10	=10	=10	=10	=10	=10	=10	=10	=10	=10	=10	=10	=10	=10	=10	=10	=10	=10	=10	=10
*	*	*	*	*	*	*	*	*	*	*	*	*	*	*	*	*	*	*	*	*	*	*	*	*	*	*	*	*^	*	*	*	*	*
*	*	*	*	*	*	*	*	*2\right	*	*	*	*2\right	*	*	*2\right	*	*	*	*	*tremolo	*	*	*	*	*	*	*	*	*	*	*	*	*	*
!	!	!	!	!	!	!	!	!	!	!	!LO:DY:a	!	!	!LO:DY:a	!	!	!LO:DY:a	!	!	!	!	!	!	!	!	!	!	!	!	!	!LO:TX:a:t=P:problem:brak zakończenia łuku	!	!	!
8r	.	8r	.	1r	.	.	.	2B-\	O-	.	pp	2d\	O-	pp	2b-\	O-	pp	8B-/L	.	8d/L	.	1r	.	2B-/	.	2D\	.	2B-/	1rc	.	2b-\)	.	2f/)	.
8F\L	.	8F\L	.	.	.	.	.	.	.	.	.	.	.	.	.	.	.	8B-/	.	8d/	.	.	.	.	.	.	.	.	.	.	.	.	.	.
8B-\J	.	8B-\J	.	.	.	.	.	.	.	.	.	.	.	.	.	.	.	8B-/	.	8d/	.	.	.	.	.	.	.	.	.	.	.	.	.	.
8r	.	8r	.	.	.	.	.	.	.	.	.	.	.	.	.	.	.	8B-/J	.	8d/J	.	.	.	.	.	.	.	.	.	.	.	.	.	.
*	*	*	*	*	*	*	*	*	*	*	*	*	*	*	*	*	*	*Xtremolo	*	*	*	*	*	*	*	*	*	*	*	*	*	*	*	*
8r	.	8r	.	.	.	.	.	4.B-\	-/ra	.	.	4.d\	-/ra	.	4.f/	-ra	.	(8d^/L	.	(8f^/L	.	.	.	4.d/	.	2F\	.	4.d/	.	.	2r	.	2r	.
8D\L	.	8D\L	.	.	.	.	.	.	.	.	.	.	.	.	.	.	.	8B-/)	.	8d/)	.	.	.	.	.	.	.	.	.	.	.	.	.	.
8F\J	.	8F\J	.	.	.	.	.	.	.	.	.	.	.	.	.	.	.	8B-/|	.	8d/	.	.	.	.	.	.	.	.	.	.	.	.	.	.
.	.	.	.	.	.	.	.	.	.	.	.	.	.	.	.	.	.	.	.	8qf/	.	.	.	.	.	.	.	.	.	.	.	.	.	.
8r	.	8r	.	.	.	.	.	8B-\	pro	.	.	8c\	pro	.	8e-/	pro	.	8c/J|	.	8e-/J	.	.	.	8f/	.	.	.	8f/	.	.	.	.	.	.
*	*	*	*	*	*	*	*	*	*	*	*	*	*	*	*	*	*	*	*	*	*	*	*	*	*	*	*	*v	*v	*	*	*	*	*
=11	=11	=11	=11	=11	=11	=11	=11	=11	=11	=11	=11	=11	=11	=11	=11	=11	=11	=11	=11	=11	=11	=11	=11	=11	=11	=11	=11	=11	=11	=11	=11	=11	=11
*	*	*	*	*	*	*	*	*	*	*	*	*	*	*	*	*	*	*	*	*	*	*	*	*^	*	*	*	*	*	*	*	*	*
*	*	*	*	*2\right	*	*	*	*	*	*	*	*	*	*	*	*	*	*tremolo	*	*	*	*	*	*	*	*	*	*	*	*	*	*	*	*
!	!	!	!	!LO:TX:t=P:problem:2F poprawione na 2B-	!	!	!	!	!	!	!	!	!	!	!	!	!	!	!	!	!	!	!	!	!	!	!	!	!	!	!	!	!	!
!	!	!	!	!LO:TX:a:t=Solo	!	!	!	!	!	!	!	!	!	!	!	!	!	!	!	!	!	!	!	!	!	!	!	!	!	!LO:DY:rj	!	!	!	!LO:DY:rj
8r	.	8r	.	2B-\	San-	.	.	4B-\	no-	.	.	4B-/	no-	.	4d/	no-	.	8B-/L	.	8d/L	.	(4.b-\	p	[1b-	1rg	p	4BB-/)	.	[1f [1d	p	1r	.	(4.b-\	p
8F\L	.	8FF/L	.	.	.	.	.	.	.	.	.	.	.	.	.	.	.	8B-/	.	8d/	.	.	.	.	.	.	.	.	.	.	.	.	.	.
8BB-\J	.	8BB-/J	.	.	.	.	.	4B-\	-bis./	.	.	4B-/	-bis.	.	4d/	-bis.	.	8B-/	.	8d/	.	.	.	.	.	.	4r	.	.	.	.	.	.	.
8r	.	8r	.	.	.	.	.	.	.	.	.	.	.	.	.	.	.	8B-/J	.	8d/J	.	8cc\	.	.	.	.	.	.	.	.	.	.	8cc\	.
8r	.	8r	.	4.F\	-cta	.	.	2r	.	.	.	2r	.	.	2r	.	.	(8d/L	.	(8f^/L	.	4b-\	.	.	.	.	2r	.	.	.	.	.	4b-\	.
8F\L	.	8FF/L	.	.	.	.	.	.	.	.	.	.	.	.	.	.	.	8B-/)	.	8d/)	.	.	.	.	.	.	.	.	.	.	.	.	.	.
8BB-\J	.	8BB-/J	.	.	.	.	.	.	.	.	.	.	.	.	.	.	.	8B-/	.	8d/	.	4f/	.	.	.	.	.	.	.	.	.	.	4f\	.
!	!	!	!	!LO:TX:t=P:problem:4F poprawione na 8D	!	!	!	!	!	!	!	!	!	!	!	!	!	!	!	!	!	!	!	!	!	!	!	!	!	!	!	!	!	!
8r	.	8r	.	8D\	Ma-	.	.	.	.	.	.	.	.	.	.	.	.	8B-/J	.	8d/J	.	.	.	.	.	.	.	.	.	.	.	.	.	.
*	*	*	*	*	*	*	*	*	*	*	*	*	*	*	*	*	*	*	*	*	*	*	*	*v	*v	*	*	*	*	*	*	*	*	*
=12	=12	=12	=12	=12	=12	=12	=12	=12	=12	=12	=12	=12	=12	=12	=12	=12	=12	=12	=12	=12	=12	=12	=12	=12	=12	=12	=12	=12	=12	=12	=12	=12	=12
*rep	*	*rep	*	*	*	*	*	*	*	*	*	*	*	*	*	*	*	*rep	*	*rep	*	*2\right	*	*	*	*	*	*	*	*	*	*2\right	*
*	*	*	*	*	*	*	*	*	*	*	*	*	*	*	*	*	*	*	*	*	*	*	*	*^	*	*	*	*	*	*	*	*	*
8r	.	8r	.	(4.F\	-ri-	.	.	1r	.	.	.	8r	.	.	8r	.	.	8B-/L	.	8d/L	.	2.b-\)	.	1b-_	1rg	.	1r	.	1f_ 1d_	.	1r	.	2.b-\)	.
!	!	!	!	!	!	!	!	!	!	!	!	!	!	!	!	!	!LO:DY:a	!	!	!	!	!	!	!	!	!	!	!	!	!	!	!	!	!
8F\L	.	8FF/L	.	.	.	.	.	.	.	.	.	8B-/	o-	.	8d/	o-	ppp	8B-/	.	8d/	.	.	.	.	.	.	.	.	.	.	.	.	.	.
8BB-\J	.	8BB-/J	.	.	.	.	.	.	.	.	.	8B-/	-ra	.	8d/	-ra	.	8B-/	.	8d/	.	.	.	.	.	.	.	.	.	.	.	.	.	.
8r	.	8r	.	8G\)	.	.	.	.	.	.	.	8B-/	pro	.	8d/	pro	.	8B-/J	.	8d/J	.	.	.	.	.	.	.	.	.	.	.	.	.	.
!	!	!	!	!	!	!	!	!	!	!	!	!	!	!	!LO:TX:t=P:problem:wykreślony łuk	!	!	!	!	!	!	!	!	!	!	!	!	!	!	!	!	!	!	!
8r	.	8r	.	4F\	-a	.	.	.	.	.	.	4d\	no-	.	4f/	no-	.	(8d/L	.	(8f^/L	.	.	.	.	.	.	.	.	.	.	.	.	.	.
8F\L	.	8FF/L	.	.	.	.	.	.	.	.	.	.	.	.	.	.	.	8B-/)	.	8d/)	.	.	.	.	.	.	.	.	.	.	.	.	.	.
8BB-\J	.	8BB-/J	.	4r	.	.	.	.	.	.	.	8B-\	-bis	.	8d/	-bis	.	8B-/	.	8d/	.	(4b-\	.	.	.	.	.	.	.	.	.	.	(4b-\	.
8r	.	8r	.	.	.	.	.	.	.	.	.	8r	.	.	8r	.	.	8B-/J	.	8d/J	.	.	.	.	.	.	.	.	.	.	.	.	.	.
*	*	*	*	*	*	*	*	*	*	*	*	*	*	*	*	*	*	*	*	*	*	*	*	*v	*v	*	*	*	*	*	*	*	*	*
*Xrep	*	*Xrep	*	*	*	*	*	*	*	*	*	*	*	*	*	*	*	*Xrep	*	*Xrep	*	*	*	*	*	*	*	*	*	*	*	*	*
=13	=13	=13	=13	=13	=13	=13	=13	=13	=13	=13	=13	=13	=13	=13	=13	=13	=13	=13	=13	=13	=13	=13	=13	=13	=13	=13	=13	=13	=13	=13	=13	=13	=13
*rep	*	*rep	*	*	*	*	*	*	*	*	*	*	*	*	*	*	*	*rep	*	*rep	*	*	*	*	*	*	*	*	*	*	*	*	*
*	*	*	*	*	*	*	*	*	*	*	*	*	*	*	*	*	*	*	*	*	*	*	*	*^	*	*	*	*	*	*	*	*	*
!	!	!	!	!LO:TX:t=P:problem:4.G poprawione na 4.B-	!	!	!	!	!	!	!	!	!	!	!	!	!	!	!	!	!	!	!	!	!	!	!	!	!	!	!	!	!	!
8r	.	8r	.	4.B-\	San-	.	.	1r	.	.	.	1r	.	.	1r	.	.	8B-/L	.	8d/L	.	4.dd\	.	1b-_	1rg	.	1r	.	(>1f] 1d_	.	1r	.	4.dd\	.
8F\L	.	8FF/L	.	.	.	.	.	.	.	.	.	.	.	.	.	.	.	8B-/	.	8d/	.	.	.	.	.	.	.	.	.	.	.	.	.	.
8BB-\J	.	8BB-/J	.	.	.	.	.	.	.	.	.	.	.	.	.	.	.	8B-/	.	8d/	.	.	.	.	.	.	.	.	.	.	.	.	.	.
8r	.	8r	.	8F\	-cta	.	.	.	.	.	.	.	.	.	.	.	.	8B-/J	.	8d/J	.	8ee-\	.	.	.	.	.	.	.	.	.	.	8ee-\	.
8r	.	8r	.	4F\	De-	.	.	.	.	.	.	.	.	.	.	.	.	(8d/L	.	(8f^/L	.	4dd\	.	.	.	.	.	.	.	.	.	.	4dd\	.
8F\L	.	8FF/L	.	.	.	.	.	.	.	.	.	.	.	.	.	.	.	8B-/)	.	8d/)	.	.	.	.	.	.	.	.	.	.	.	.	.	.
!	!	!	!	!LO:TX:t=P:problem:4F poprawione na 4D	!	!	!	!	!	!	!	!	!	!	!	!	!	!	!	!	!	!	!	!	!	!	!	!	!	!	!	!	!	!
8BB-\J	.	8BB-/J	.	4D\	-i	.	.	.	.	.	.	.	.	.	.	.	.	8B-/	.	8d/	.	4b-\	.	.	.	.	.	.	.	.	.	.	4b-\	.
8r	.	8r	.	.	.	.	.	.	.	.	.	.	.	.	.	.	.	8B-/J	.	8d/J	.	.	.	.	.	.	.	.	.	.	.	.	.	.
*	*	*	*	*	*	*	*	*	*	*	*	*	*	*	*	*	*	*	*	*	*	*	*	*v	*v	*	*	*	*	*	*	*	*	*
*Xrep	*	*Xrep	*	*	*	*	*	*	*	*	*	*	*	*	*	*	*	*Xrep	*	*Xrep	*	*	*	*	*	*	*	*	*	*	*	*	*
=14	=14	=14	=14	=14	=14	=14	=14	=14	=14	=14	=14	=14	=14	=14	=14	=14	=14	=14	=14	=14	=14	=14	=14	=14	=14	=14	=14	=14	=14	=14	=14	=14	=14
*	*	*	*	*	*	*	*	*	*	*	*	*	*	*	*	*	*	*rep	*	*	*	*	*	*	*	*	*	*	*	*	*	*	*
*	*	*	*	*	*	*	*	*	*	*	*	*	*	*	*	*	*	*	*	*	*	*	*	*^	*	*	*	*	*	*	*	*	*
!	!	!LO:TX:t=P:problem:na znaku powtórki wpisane nuty	!	!LO:TX:t=P:problem:2.F poprawione na 4.F	!	!	!	!	!	!	!	!	!	!	!	!	!	!	!	!	!	!	!	!	!	!	!	!	!LO:TX:t=P:problem:1e-1g poprawione na 1e-1cc	!	!	!	!	!
8r	.	8r	.	4.F\	ge-	.	.	1r	.	.	.	8r	.	.	8r	.	.	8B-/L	.	8d/L	.	2.dd\)	<	1b-_	1rg	<	(2F\	<	1b-) 1d]	<	1r	.	2.dd\)	.
8F\L	.	8FF/L	.	.	.	.	.	.	.	.	.	8d\	o-	.	8f\	o-	.	8B-/	.	8d/	.	.	.	.	.	.	.	.	.	.	.	.	.	<
8BB-\J	.	8BB-/J	.	.	.	.	.	.	.	.	.	8d\	-ra	.	8f\	-ra	.	8B-/	.	8d/	.	.	.	.	.	.	.	.	.	.	.	.	.	.
8r	.	8r	.	8F\	-ni-	.	.	.	.	.	.	8d\	pro	.	8f\	pro	.	8B-/J	.	8d/J	.	.	.	.	.	.	.	.	.	.	.	.	.	.
*	*	*	*	*	*	*	*	*	*	*	*	*	*	*	*	*	*	*	*	*Xtremolo	*	*	*	*	*	*	*	*	*	*	*	*	*	*
!	!	!	!	!LO:TX:t=P:problem:4F# poprawione na 2F#, po nim skreślone 8F#	!	!	!	!	!	!	!	!	!	!	!	!	!	!	!	!	!	!	!	!	!	!	!	!	!	!	!	!	!	!
8r	.	8r	.	2F#X\	-trix.	[[-ni-	.	.	.	.	.	4d\	no-	.	4b-\	no-	.	(8d/L	.	(8b-^/L	.	.	.	.	.	.	2F#X\)	.	.	.	.	.	.	.
8F#X\L	.	8FF#X/L	.	.	.	.	.	.	.	.	.	.	.	.	.	.	.	8B-/)	.	8d/)	.	.	.	.	.	.	.	.	.	.	.	.	.	.
!	!	!	!	!	!	!	!	!	!	!	!	!	!	!	!LO:TX:t=P:problem:8f poprawione na 8d	!	!	!	!	!	!	!	!	!	!	!	!	!	!	!	!	!	!	!
8BB-\J	.	8BB-/J	.	.	.	.	.	.	.	.	.	8d\	-bis	.	8d\	-bis	.	8B-/	.	8d/	.	[4dd\	[[	.	.	.	.	.	.	.	.	.	4dd\	[[
8r	.	8r	.	.	.	.	.	.	.	.	.	8r	.	.	8r	.	.	8B-/J	.	8d/J	.	.	.	.	.	[	.	[	.	[	.	.	.	.
*	*	*	*	*	*	*	*	*	*	*	*	*	*	*	*	*	*	*	*	*	*	*	*	*v	*v	*	*	*	*	*	*	*	*	*
*	*	*	*	*	*	*	*	*	*	*	*	*	*	*	*	*	*	*Xrep	*	*	*	*	*	*	*	*	*	*	*	*	*	*	*
!!LO:LB:g=original
=15	=15	=15	=15	=15	=15	=15	=15	=15	=15	=15	=15	=15	=15	=15	=15	=15	=15	=15	=15	=15	=15	=15	=15	=15	=15	=15	=15	=15	=15	=15	=15	=15	=15
*	*	*	*	*	*	*	*	*	*	*	*	*	*	*	*	*	*	*	*	*	*	*	*	*2\right	*	*	*	*	*	*	*	*8va	*
*	*	*	*	*	*	*	*	*	*	*	*	*	*	*	*	*	*	*	*	*	*	*	*	*^	*	*	*	*^	*	*	*	*	*
!	!	!	!	!LO:TX:t=P:problem:2G poprawione na 4.G	!	!	!	!	!	!	!	!	!	!	!	!	!	!	!	!	!LO:DY:rj:t=f.	!LO:TX:a:t=P:problem:brak zakończenia ligatury	!	!	!	!LO:DY:rj	!	!	!	!	!LO:DY:rj:t=f.	!	!	!	!
8r	.	8r	.	4.G\	.	-trix	.	1r	.	.	.	2d\	o-	.	2b-\	o-	.	8B-/L	f	8d/L	f	(4.dd\]	f	(2b-/]	2B-\	f	(2G\	f	(2b-/	2d\	f	1r	.	4.ddd\	f
8GG/L	.	8GG/L	.	.	.	.	.	.	.	.	.	.	.	.	.	.	.	8B-/	.	8d/	.	.	.	.	.	.	.	.	.	.	.	.	.	.	>
8BB-/J	.	8BB-/J	.	.	.	.	.	.	.	.	.	.	.	.	.	.	.	8B-/	.	8d/	.	.	.	.	.	.	.	.	.	.	.	.	.	.	.
8r	.	8r	.	8G\	ni-	.	.	.	.	.	.	.	.	.	.	.	.	8d/J	.	8b-/J	.	8ee-\	.	.	.	.	.	.	.	.	.	.	.	8eee-\	.
*	*	*	*	*2\left	*	*	*	*	*	*	*	*	*	*	*	*	*	*	*	*	*	*	*	*	*	*	*	*	*	*	*	*	*	*	*
!	!	!	!	!LO:TX:t=P:problem:4.A poprawione na 2A, po niej wykreślona 8A	!	!	!	!	!	!	!	!	!	!	!	!	!	!	!	!	!	!	!	!	!	!	!	!	!	!	!	!	!	!	!
8r	.	8r	.	2A\	-trix.	sancta	.	.	.	.	.	4.f\	-ra	.	4.cc\	-ra	.	(8f^/L	.	(8cc^/L	.	4ff\	>	2cc/	2f\	.	2A\	>	2cc/	[2f\	.	.	.	4fff\	.
!LO:TX:t=P:problem:mixed beam	!	!LO:TX:t=P:problem:mixed beam	!	!	!	!	!	!	!	!	!	!	!	!	!	!	!	!	!	!	!	!	!	!	!	!	!	!	!	!	!	!	!	!	!
8AA/L	.	8AA/L	.	.	.	.	.	.	.	.	.	.	.	.	.	.	.	8c/)	.	8e-/)	.	.	.	.	.	.	.	.	.	.	.	.	.	.	.
8F\J	.	8F\J	.	.	.	.	.	.	.	.	.	.	.	.	.	.	.	8c/	.	8e-/	.	4cc\	.	.	.	>	.	.	.	.	.	.	.	4ccc\	.
8r	.	8r	.	.	.	.	.	.	.	.	.	8f\	pro	.	8cc\	pro	.	8c/J	.	8e-/J	.	.	.	.	.	.	.	.	.	.	.	.	.	.	.
=16	=16	=16	=16	=16	=16	=16	=16	=16	=16	=16	=16	=16	=16	=16	=16	=16	=16	=16	=16	=16	=16	=16	=16	=16	=16	=16	=16	=16	=16	=16	=16	=16	=16	=16	=16
!	!	!	!	!LO:TX:t=P:problem:4.B- poprawione na 4B-	!	!	!	!	!	!	!	!	!	!	!	!	!	!	!	!	!	!	!	!	!	!	!	!	!	!	!	!	!	!	!
8r	.	8r	.	4B-\	San-	Vir-	.	8r	.	.	.	2f\	no-	.	(4.dd\	no-	.	8B-/L	.	8d/L	.	4.dd\	.	2dd/	1b-	.	2F\	.	4.dd/	2f\]	>	1r	.	4.ddd\	.
8BB-/L	.	8BB-/L	.	.	.	.	.	8B-\	o-	.	.	.	.	.	.	.	.	8B-/	.	8d/	.	.	.	.	.	.	.	.	.	.	.	.	.	.	.
!	!	!	!	!LO:TX:t=P:problem:8D poprawione na 4D	!	!	!	!	!	!	!	!	!	!	!	!	!	!	!	!	!	!	!	!	!	!	!	!	!	!	!	!	!	!	!
8D/J	.	8D/J	.	4D/	-cta	-go]]	.	8B-\	-ra	.	.	.	.	.	.	.	.	8B-/	.	8d/	.	.	.	.	.	.	.	.	.	.	.	.	.	.	.
!	!	!	!	!	!	!	!	!	!	!	!	!	!	!	!	!	!	!	!	!	!	!	!	!	!	!	!	!	!LO:TX:t=P:problem:8cc poprawione na 8b	!	!	!	!	!	!
8r	.	8r	.	.	.	.	.	8B-\	pro	.	.	.	.	.	8a\)	.	.	8B-/J	.	8f/J	.	8a\	.	.	.	.	.	.	8a/	.	.	.	.	8aa\	.
!	!	!	!	!	!	!	!	!	!	!	!	!LO:TX:t=P:problem:4g poprawione na 4d	!	!	!	!	!	!	!	!	!	!	!	!	!	!	!	!	!	!	!	!	!	!	!
8r	.	8r	.	4F\	vir-	.	.	4B-\	no-	.	.	4d\	-bis	.	4b-\	-bis	.	(8B-^/L	.	(8g^>/L	.	4b-\	.	2ee-/)	.	]	2G\)	]	4b-/	4g\	.	.	.	4bb-\	.
8E-\L	.	8E-\L	.	.	.	.	.	.	.	.	.	.	.	.	.	.	.	8c/)	.	8B-/)	.	.	.	.	.	.	.	.	.	.	.	.	.	.	.
!	!	!	!	!	!	!	!	!LO:TX:t=P:problem:4c poprawione na 4B-	!	!	!	!	!	!	!	!	!	!	!	!	!	!LO:TX:t=P:problem:niekompletny takt	!	!	!	!	!	!	!	!	!	!	!	!	!
8G\J	.	8G\J	.	4E-\	-go	.	.	4B-\	-bis	.	.	4e-\	pro	.	4g\	pro	.	8c/|	.	8B-/	.	4g\yy)	]]	.	.	.	.	.	4g/)	4e-\	]	.	.	4gg\	]
8r	.	8r	.	.	.	.	.	.	.	.	.	.	.	.	.	.	.	8c/J|	.	8e-/J	.	.	.	.	.	.	.	.	.	.	.	.	.	.	.
*	*	*	*	*	*	*	*	*	*	*	*	*	*	*	*	*	*	*	*	*	*	*	*	*v	*v	*	*	*	*v	*v	*	*	*	*	*
*	*	*	*	*	*	*	*	*	*	*	*	*	*	*	*	*	*	*	*	*	*	*	*	*	*	*	*	*	*	*	*	*X8va	*
=17	=17	=17	=17	=17	=17	=17	=17	=17	=17	=17	=17	=17	=17	=17	=17	=17	=17	=17	=17	=17	=17	=17	=17	=17	=17	=17	=17	=17	=17	=17	=17	=17	=17
*	*	*	*	*	*	*	*	*	*	*	*	*	*	*	*	*	*	*	*	*	*	*	*	*^	*	*	*	*^	*	*	*	*	*
*	*	*	*	*2\right	*	*	*	*	*	*	*	*	*	*	*	*	*	*	*	*tremolo	*	*	*	*	*	*	*	*	*	*	*	*	*	*	*
!	!	!	!	!LO:TX:t=P:problem:poprawiony tekst	!	!	!	!	!	!	!	!	!	!	!	!	!	!	!	!	!LO:DY:t=p	!	!LO:DY:t=p	!LO:TX:t=P:problem:cor I: 4gg i 4r poprawione na 2ee	!	!LO:DY:rj	!	!	!	!	!LO:DY:rj	!	!	!LO:TX:a:i:t=loco.	!
8r	.	8r	.	[2F\	vir-	.	.	[2B-\	o-	.	.	(2d\	no-	.	(2f/	no-	.	8B-/L	p	8d/L	p	(2f/	p	2dd/	1f	p	4F\	.	(2f/	2d\	p	1r	.	(2ff\	p
8F\L	.	8F\L	.	.	.	.	.	.	.	.	.	.	.	.	.	.	.	8B-/	.	8d/	.	.	.	.	.	.	.	.	.	.	.	.	.	.	.
8B-\J	.	8B-\J	.	.	.	.	.	.	.	.	.	.	.	.	.	.	.	8B-/	.	8d/	.	.	.	.	.	.	4r	.	.	.	.	.	.	.	.
8r	.	8r	.	.	.	.	.	.	.	.	.	.	.	.	.	.	.	8B-/J	.	8d/J	.	.	.	.	.	.	.	.	.	.	.	.	.	.	.
*	*	*	*	*	*	*	*	*	*	*	*	*	*	*	*	*	*	*Xtremolo	*	*	*	*	*	*	*	*	*	*	*	*	*	*	*	*	*
8r	.	8r	.	4.F\]	.	.	.	8B-\L]	.	.	.	2c\)	.	.	2e-/)	.	.	(8c^/L	.	8e-/L	.	4g/	.	2cc/	.	.	2r	.	4g/	2e-\	.	.	.	4ee-\	.
!	!	!LO:TX:t=P:problem:8F poprawione na 8FF	!	!	!	!	!	!	!	!	!	!	!	!	!	!	!	!	!	!	!	!	!	!	!	!	!	!	!	!	!	!	!	!	!
!	!	!LO:TX:t=P:problem:mixed beam	!	!	!	!	!	!	!	!	!	!	!	!	!	!	!	!	!	!	!	!	!	!	!	!	!	!	!	!	!	!	!	!	!
8F\L	.	8FF/L	.	.	.	.	.	8A\	.	.	.	.	.	.	.	.	.	8F/)	.	8e-/	.	.	.	.	.	.	.	.	.	.	.	.	.	.	.
8F\J	.	8F\J	.	.	.	.	.	8G\	.	.	.	.	.	.	.	.	.	8F/	.	8e-/	.	4a/	.	.	.	.	.	.	4a/	.	.	.	.	4cc\	.
8r	.	8r	.	8F\	-gi-	.	.	8F\J	.	.	.	.	.	.	.	.	.	8c/J	.	8e-/J	.	.	.	.	.	.	.	.	.	.	.	.	.	.	.
=18	=18	=18	=18	=18	=18	=18	=18	=18	=18	=18	=18	=18	=18	=18	=18	=18	=18	=18	=18	=18	=18	=18	=18	=18	=18	=18	=18	=18	=18	=18	=18	=18	=18	=18	=18
*	*	*	*	*	*	*	*	*	*	*	*	*	*	*	*	*	*	*tremolo	*	*	*	*	*	*	*	*	*	*	*	*	*	*	*	*	*
8r	.	8r	.	4BB-/	-num.	.	.	4F/	-ra.	.	.	8B-/	-bis,	.	8d/	-bis,	.	8B-/L	.	8d/L	.	2b-\)	.	[<1b-	1dd	.	1ryy	.	2b-/)	2d\	.	1r	.	2b-\)	.
8F\L	.	8FF/L	.	.	.	.	.	.	.	.	.	8B-/	o-	.	8d/	o-	.	8B-/	.	8d/	.	.	.	.	.	.	.	.	.	.	.	.	.	.	.
8BB-\J	.	8BB-/J	.	4r	.	.	.	4r	.	.	.	8B-/	-ra	.	8d/	-ra	.	8B-/	.	8d/	.	.	.	.	.	.	.	.	.	.	.	.	.	.	.
8r	.	8r	.	.	.	.	.	.	.	.	.	8B-/	pro	.	8d/	pro	.	8B-/J	.	8d/J	.	.	.	.	.	.	.	.	.	.	.	.	.	.	.
*	*	*	*	*	*	*	*	*	*	*	*	*	*	*	*	*	*	*Xtremolo	*	*Xtremolo	*	*	*	*	*	*	*	*	*	*	*	*	*	*	*
!LO:TX:t=P:problem:brak 8r	!	!LO:TX:t=P:problem:brak 8r	!	!	!	!	!	!	!	!	!	!	!	!	!	!	!	!	!	!	!	!	!	!	!	!	!	!	!	!	!	!	!	!	!
8ryy	.	8ryy	.	2r	.	.	.	2r	.	.	.	4d/	no-	.	4f/	no-	.	(8d^/L	.	(8f^/L	.	4r	.	.	.	.	.	.	4rgg	2rcc	.	.	.	2r	.
8F\L	.	8FF/L	.	.	.	.	.	.	.	.	.	.	.	.	.	.	.	8B-/)	.	8d/)	.	.	.	.	.	.	.	.	.	.	.	.	.	.	.
!	!	!	!	!	!	!	!	!LO:TX:a:i:t=Solo	!	!	!	!	!	!	!	!	!	!	!	!	!	!	!	!	!	!	!	!	!	!	!	!	!	!	!
8B-\J	.	8BB-/J	.	.	.	.	.	.	.	.	.	8B-/	-bis	.	8d/	-bis	.	8B-/|	.	8d/|	.	(4dd\	p	.	.	.	.	.	(4dd/	.	.	.	.	.	.
8r	.	8r	.	.	.	.	.	.	.	.	.	8r	.	.	8r	.	.	8B-/J|	.	8d/J|	.	.	.	.	.	.	.	.	.	.	.	.	.	.	.
=19	=19	=19	=19	=19	=19	=19	=19	=19	=19	=19	=19	=19	=19	=19	=19	=19	=19	=19	=19	=19	=19	=19	=19	=19	=19	=19	=19	=19	=19	=19	=19	=19	=19	=19	=19
8r	.	8r	.	1r	.	.	.	(4.c\	Ma-	.	.	1r	.	.	1r	.	.	8r	.	8r	.	4.cc\	.	2cc/	1b-]	.	(2En\	.	4.cc/	(2g\	.	1r	.	1r	.
8En\L	.	8EEn/L	.	.	.	.	.	.	.	.	.	.	.	.	.	.	.	8G/L	.	8B-/L	.	.	.	.	.	.	.	.	.	.	.	.	.	.	.
8G\J	.	8GG/J	.	.	.	.	.	.	.	.	.	.	.	.	.	.	.	8G/	.	8B-/	.	.	.	.	.	.	.	.	.	.	.	.	.	.	.
8r	.	8r	.	.	.	.	.	8d\	-ter	.	.	.	.	.	.	.	.	8G/J	.	8B-/J	.	8dd\	.	.	.	.	.	.	8dd/	.	.	.	.	.	.
8r	.	8r	.	.	.	.	.	4c\)	Chris-	.	.	.	.	.	.	.	.	(8B-^/L	.	(8g^/L	.	4cc\	.	2dd/	.	.	2F\	.	4cc/	2f\	.	.	.	.	.
8F\L	.	8FF/L	.	.	.	.	.	.	.	.	.	.	.	.	.	.	.	8G/)	.	8B-/)	.	.	.	.	.	.	.	.	.	.	.	.	.	.	.
!	!	!	!	!	!	!	!	!LO:TX:t=P:problem:przed 4g wykreślona nuta	!	!	!	!	!	!	!	!	!	!	!	!	!	!	!	!	!	!	!	!	!	!	!	!	!	!	!
8B-\J	.	8BB-/J	.	.	.	.	.	4F/	-ti	[[-ter	.	.	.	.	.	.	.	8G/	.	8B-/	.	4f/	.	.	.	.	.	.	4f/	.	.	.	.	.	.
8r	.	8r	.	.	.	.	.	.	.	.	.	.	.	.	.	.	.	8G/J	.	8B-/J	.	.	.	.	.	.	.	.	.	.	.	.	.	.	.
!!LO:LB:g=original
=20	=20	=20	=20	=20	=20	=20	=20	=20	=20	=20	=20	=20	=20	=20	=20	=20	=20	=20	=20	=20	=20	=20	=20	=20	=20	=20	=20	=20	=20	=20	=20	=20	=20	=20	=20
*	*	*	*	*	*	*	*	*	*	*	*	*	*	*	*	*	*	*rep	*	*rep	*	*	*	*	*	*	*	*	*	*	*	*	*	*	*
!LO:TX:a:t=A =	!	!	!	!LO:TX:a:i:t=tutti.	!	!	!	!LO:TX:t=P:problem:4.c poprawione na 2c, po nim wykreślone 8c	!	!	!	!	!	!	!	!	!	!	!	!	!	!LO:TX:a:t=P:problem:brak zakończenia łuku	!	!	!	!	!	!	!	!	!	!	!	!	!
!	!	!	!	!	!	!	!	!	!	!	!	!	!	!	!	!	!	!	!	!	!	!LO:TX:b:t=A =	!	!LO:TX:t=P:problem:cor I: 2dd i 2ee poprawione na 1dd	!	!	!	!	!	!LO:TX:a:t=P:problem:brak zakończenia łuku	!	!	!	!LO:TX:a:t=A =	!
8r	.	8r	.	8r	.	.	.	2c\	o-	Chri	.	8r	.	.	8r	.	.	8r	.	8r	.	2.cc\)	.	[1cc	[1b-	.	2G\	.	2.cc/)	2eX\	.	1r	.	1r	.
8G\L	.	8GG/L	.	8G\	o-	.	.	.	.	.	.	8en\	o-	.	8b-\	o-	.	8G/L	.	8B-/L	.	.	.	.	.	.	.	.	.	.	.	.	.	.	.
8B-\J	.	8BB-/J	.	8G\	-ra	.	.	.	.	.	.	8e\	-ra	.	8b-\	-ra	.	8G/	.	8B-/	.	.	.	.	.	.	.	.	.	.	.	.	.	.	.
8r	.	8r	.	8G\	pro	.	.	.	.	.	.	8e\	pro	.	8b-\	pro	.	8G/J	.	8B-/J	.	.	.	.	.	.	.	.	.	.	.	.	.	.	.
!	!	!	!	!	!	!	!	!LO:TX:t=P:problem:8A poprawione na 8c	!	!	!	!	!	!	!	!	!	!	!	!	!	!	!	!	!	!	!	!	!	!	!	!	!	!	!
8r	.	8r	.	4F\	no-	.	.	8c\	-ra!	-sti]]	.	4f\	no-	.	4b-\	no-	.	(8B-^/L	.	(8g^/L	.	.	.	.	.	.	2F\)	.	.	2f\)	.	.	.	.	.
8F\L	.	8FF/L	.	.	.	.	.	8r	.	.	.	.	.	.	.	.	.	8G/)	.	8B-/)	.	.	.	.	.	.	.	.	.	.	.	.	.	.	.
8B-\J	.	8BB-/J	.	8F\	-bis	.	.	[4c\	Ma-	.	.	8f\	-bis	.	8b-\	-bis	.	8G/	.	8B-/	.	([<4cc\	.	.	.	.	.	.	([<4cc/	.	.	.	.	.	.
8r	.	8r	.	8r	.	.	.	.	.	.	.	8r	.	.	8r	.	.	8G/J	.	8B-/J	.	.	.	.	.	.	.	.	.	.	.	.	.	.	.
*	*	*	*	*	*	*	*	*	*	*	*	*	*	*	*	*	*	*	*	*	*	*	*	*v	*v	*	*	*	*v	*v	*	*	*	*	*
*	*	*	*	*	*	*	*	*	*	*	*	*	*	*	*	*	*	*Xrep	*	*Xrep	*	*	*	*	*	*	*	*	*	*	*	*	*
=21	=21	=21	=21	=21	=21	=21	=21	=21	=21	=21	=21	=21	=21	=21	=21	=21	=21	=21	=21	=21	=21	=21	=21	=21	=21	=21	=21	=21	=21	=21	=21	=21	=21
*	*	*	*	*	*	*	*	*	*	*	*	*	*	*	*	*	*	*	*	*	*	*	*	*^	*	*	*	*^	*	*	*	*	*
8r	.	8r	.	1r	.	.	.	4c\]	.	.	.	1r	.	.	1r	.	.	8r	.	8r	.	4.cc\]	.	1cc_	2b-\]	.	(2En\	.	4.cc/]	(2g\	.	1r	.	1r	.
8En\L	.	8EEn/L	.	.	.	.	.	.	.	.	.	.	.	.	.	.	.	8B-/L	.	8c/L	.	.	.	.	.	.	.	.	.	.	.	.	.	.	.
8G\J	.	8GG/J	.	.	.	.	.	8c\	-ter	.	.	.	.	.	.	.	.	8B-/	.	8c/	.	.	.	.	.	.	.	.	.	.	.	.	.	.	.
8r	.	8r	.	.	.	.	.	8d\	di-	.	.	.	.	.	.	.	.	8B-/J	.	8c/J	.	8dd\	.	.	.	.	.	.	8dd/	.	.	.	.	.	.
8r	.	8r	.	.	.	.	.	4c\	-vi-	.	.	.	.	.	.	.	.	4A^/	.	(8f^/L	.	4cc\	.	.	2a\	.	2F\	.	4cc/	2f\	.	.	.	.	.
8F\L	.	8FF/L	.	.	.	.	.	.	.	.	.	.	.	.	.	.	.	.	.	8c/)	.	.	.	.	.	.	.	.	.	.	.	.	.	.	.
8B-\J	.	8BB-/J	.	.	.	.	.	4A\	-nae	.	.	.	.	.	.	.	.	8A/L	.	8c/	.	4a\	.	.	.	.	.	.	4a/	.	.	.	.	.	.
8r	.	8r	.	.	.	.	.	.	.	.	.	.	.	.	.	.	.	8A/J	.	8c/J	.	.	.	.	.	.	.	.	.	.	.	.	.	.	.
*	*	*	*	*	*	*	*	*	*	*	*	*	*	*	*	*	*	*	*	*	*	*	*	*v	*v	*	*	*	*v	*v	*	*	*	*	*
=22	=22	=22	=22	=22	=22	=22	=22	=22	=22	=22	=22	=22	=22	=22	=22	=22	=22	=22	=22	=22	=22	=22	=22	=22	=22	=22	=22	=22	=22	=22	=22	=22	=22
*	*	*	*	*	*	*	*	*	*	*	*	*	*	*	*	*	*	*rep	*	*rep	*	*	*	*	*	*	*	*	*	*	*	*	*
*	*	*	*	*	*	*	*	*	*	*	*	*	*	*	*	*	*	*	*	*	*	*	*	*^	*	*	*	*^	*	*	*	*	*
8r	.	8r	.	8r	.	.	.	4.c\	gra-	.	.	8r	.	.	8r	.	.	8r	<	8r	<	2.cc\)	<	1cc]	2b-\	.	2G\	.	2.cc/)	2eX\	.	1r	.	1r	.
8G\L	.	8GG/L	.	8C\	o-	.	.	.	.	.	.	8B-/	o-	.	8en/	o-	.	8B-/L	.	8c/L	.	.	.	.	.	.	.	.	.	.	.	.	.	.	.
8B-\J	.	8BB-/J	.	8C\	-ra	.	.	.	.	.	.	8B-/	-ra	.	8e/	-ra	.	8B-/	.	8c/	.	.	.	.	.	.	.	.	.	.	.	.	.	.	.
8r	.	8r	.	8C\	pro	.	.	8c\	-ti-	.	.	8B-/	pro	.	8e/	pro	.	8B-/J	.	8c/J	.	.	.	.	.	.	.	.	.	.	.	.	.	.	.
8r	.	8r	.	4F\	no-	.	.	4c\	-ae	.	.	4A/	no-	.	4f/	no-	.	4A^/	.	(8f^/L	.	.	.	.	2a\	.	2F\)	.	.	4f\)	.	.	.	.	.
8F\L	.	8FF/L	.	.	.	.	.	.	.	.	.	.	.	.	.	.	.	.	.	8c/)	.	.	.	.	.	.	.	.	.	.	.	.	.	.	.
!	!	!	!	!	!	!	!	!	!	!	!	!	!	!	!	!	!	!	!	!	!	!	!LO:DY:t=piu forte.	!	!	!	!	!LO:DY:t=piu forte.	!	!	!LO:DY:t=piu forte.	!	!	!	!
8A\J	.	8AA/J	.	8A\	-bis	.	.	4r	.	.	.	8c/	-bis	.	8a\	-bis	.	8A/L	.	8c/	.	(4cc\	[ f	.	.	.	.	f	(4cc/	[4a\	f	.	.	.	.
8r	.	8r	.	8r	.	.	.	.	.	.	.	8r	.	.	8r	.	.	8A/J	[[	8c/J	[[	.	.	.	.	.	.	.	.	.	.	.	.	.	.
*	*	*	*	*	*	*	*	*	*	*	*	*	*	*	*	*	*	*	*	*	*	*	*	*v	*v	*	*	*	*v	*v	*	*	*	*	*
*	*	*	*	*	*	*	*	*	*	*	*	*	*	*	*	*	*	*Xrep	*	*Xrep	*	*	*	*	*	*	*	*	*	*	*	*	*
=23	=23	=23	=23	=23	=23	=23	=23	=23	=23	=23	=23	=23	=23	=23	=23	=23	=23	=23	=23	=23	=23	=23	=23	=23	=23	=23	=23	=23	=23	=23	=23	=23	=23
*	*	*	*	*	*	*	*	*	*	*	*	*	*	*	*	*	*	*	*	*	*	*	*	*^	*	*	*	*^	*	*	*	*	*
!	!	!	!	!	!	!	!	!LO:TX:b:t=P:problem:wykreślona dynamika p	!	!	!	!	!	!	!	!	!	!	!	!	!	!	!	!	!	!	!	!	!	!	!	!	!	!	!
8r	.	8r	.	1r	.	.	.	2d\	Ma-	.	.	1r	.	.	1r	.	.	8r	.	8r	.	4.dd\	.	[1dd	2cc\	.	(2F#X\	.	4.dd/	(2a\]	.	1ryy	.	1ryy	.
!	!	!	!LO:DY:b:t=piu fort.	!	!	!	!	!	!	!	!	!	!	!	!	!	!	!	!	!	!	!	!	!	!	!	!	!	!	!	!	!	!	!	!
8F#X\L	.	8FF#X/L	f	.	.	.	.	.	.	.	.	.	.	.	.	.	.	8d\L|	.	8c/L|	.	.	.	.	.	.	.	.	.	.	.	.	.	.	.
8A\J	.	8AA/J	.	.	.	.	.	.	.	.	.	.	.	.	.	.	.	8d\|	.	8c/|	.	.	.	.	.	.	.	.	.	.	.	.	.	.	.
8r	.	8r	.	.	.	.	.	.	.	.	.	.	.	.	.	.	.	8d\J|	.	8c/J|	.	8ee-\	.	.	.	.	.	.	8ee-/	.	.	.	.	.	.
8r	.	8r	.	.	.	.	.	4B-\	-ter	.	.	.	.	.	.	.	.	(8g^<\L	.	(8B-^>/L	.	4dd\	.	.	2b-\	.	2G\	.	4dd/	2g\	.	.	.	.	.
!LO:TX:t=P:problem:8r poprawione na 8G	!	!	!	!	!	!	!	!	!	!	!	!	!	!	!	!	!	!	!	!	!	!	!	!	!	!	!	!	!	!	!	!	!	!	!
8G\L	.	8GG/L	.	.	.	.	.	.	.	.	.	.	.	.	.	.	.	8d\)	.	8d/)	.	.	.	.	.	.	.	.	.	.	.	.	.	.	.
8B-\J	.	8BB-/J	.	.	.	.	.	4G/	pu-	.	.	.	.	.	.	.	.	8d\	.	8B-/	.	4b-\	.	.	.	.	.	.	4b-/	.	.	.	.	.	.
8r	.	8r	.	.	.	.	.	.	.	.	.	.	.	.	.	.	.	8d\J	.	8B-/J	.	.	.	.	.	.	.	.	.	.	.	.	.	.	.
*	*	*	*	*	*	*	*	*	*	*	*	*	*	*	*	*	*	*	*	*	*	*	*	*v	*v	*	*	*	*v	*v	*	*	*	*	*
=24	=24	=24	=24	=24	=24	=24	=24	=24	=24	=24	=24	=24	=24	=24	=24	=24	=24	=24	=24	=24	=24	=24	=24	=24	=24	=24	=24	=24	=24	=24	=24	=24	=24
*	*	*	*	*	*	*	*	*	*	*	*	*	*	*	*	*	*	*rep	*	*rep	*	*	*	*	*	*	*	*	*	*	*	*	*
*	*	*	*	*	*	*	*	*	*	*	*	*	*	*	*	*	*	*	*	*	*	*	*	*^	*	*	*	*^	*	*^	*	*	*
8r	.	8r	.	8r	.	.	.	4.d\	-ris-	.	.	8r	.	.	8r	.	.	8r	.	8r	.	2.dd\)	<	1dd]	2cc\	<	2A\	<	[<2dd/	2f#X\	.	2r	1re	.	2r	.
!	!	!	!	!	!	!	!	!	!	!	!	!	!	!	!	!	!	!	!	!	!	!	!	!	!	!	!	!	!	!	!LO:HP:a	!	!	!	!	!
8A\L	.	8AA/L	.	8A\	o-	.	.	.	.	.	.	8c\	o-	.	8f#X\	o-	.	8d\L|	.	8c/L|	.	.	.	.	.	.	.	.	.	.	<	.	.	.	.	.
8d\J	.	8D/J	.	8A\	-ra	.	.	.	.	.	.	8c\	-ra	.	8f#\	-ra	.	8d\|	.	8c/|	.	.	.	.	.	.	.	.	.	.	.	.	.	.	.	.
8r	.	8r	.	8A\	pro	.	.	8d\	-si-	.	.	8c\	pro	.	8f#\	pro	.	8d\J|	.	8c/J|	.	.	.	.	.	.	.	.	.	.	.	.	.	.	.	.
8r	.	8r	.	4G\	no-	.	.	8d\	-ma,	.	.	4B-\	no-	.	8g\	no-	.	(8g^<\L	.	(8B-^>/L	.	.	.	.	2b-\	.	2G\)	[[	8dd/])	2g\)	.	4r	.	.	4r	.
8G\L	.	8GG/L	.	.	.	.	.	8r	.	.	.	.	.	.	8g\	-bis,	.	8d\)	.	8d/)	.	.	.	.	.	.	.	.	8r	.	.	.	.	.	.	.
!	!	!	!	!	!	!	!	!	!	!	!	!	!	!	!LO:TX:t=P:problem:4g poprawione na 4dd	!	!	!	!	!	!	!LO:TX:a:t=P:problem:początek ligatury na dole	!	!	!	!	!	!	!	!	!	!	!	!LO:DY:rj	!	!LO:DY:rj:t=f.
8B-\J	.	8BB-/J	.	4G\	-bis	.	.	4d^\	cas-	[[-ma]]	.	4B-\	-bis/	.	[4dd^\	o-	.	8d\	.	8B-/	.	4dd\	[	.	.	[	.	.	4dd/	.	.	[<4dd^</	.	f	[4ddd^\	f
8r	.	8r	.	.	.	.	.	.	.	.	.	.	.	.	.	.	.	8d\J	.	8B-/J	.	.	.	.	.	.	.	.	.	.	[	.	.	.	.	.
*	*	*	*	*	*	*	*	*	*	*	*	*	*	*	*	*	*	*	*	*	*	*	*	*	*	*	*	*	*v	*v	*	*	*	*	*	*
*	*	*	*	*	*	*	*	*	*	*	*	*	*	*	*	*	*	*	*	*	*	*	*	*v	*v	*	*	*	*	*	*v	*v	*	*	*
*	*	*	*	*	*	*	*	*	*	*	*	*	*	*	*	*	*	*Xrep	*	*Xrep	*	*	*	*	*	*	*	*	*	*	*	*	*
!!LO:LB:g=original
=25	=25	=25	=25	=25	=25	=25	=25	=25	=25	=25	=25	=25	=25	=25	=25	=25	=25	=25	=25	=25	=25	=25	=25	=25	=25	=25	=25	=25	=25	=25	=25	=25	=25
*	*	*	*	*	*	*	*	*	*	*	*	*	*	*	*	*	*	*	*	*	*	*	*	*^	*	*	*	*^	*	*	*	*	*
*	*	*	*	*	*	*	*	*	*	*	*	*	*	*	*	*	*	*tremolo	*	*	*	*	*	*	*	*	*	*	*	*	*	*	*	*	*
!LO:TX:t=col Vcello	!	!	!	!	!	!	!	!LO:TX:b:t=P:problem:tekst połączony łukami na górze w tt. 25-26	!	!	!	!	!	!LO:DY:b	!	!	!LO:DY:b:t=f.	!	!	!	!LO:DY:rj	!	!LO:DY:t=f.	!LO:TX:t=P:problem:cor II: 4cc 4b- 4a 4b- poprawione na 1a	!	!	!	!LO:DY:rj	!	!	!LO:DY:rj	!	!	!LO:TX:a:t=P:problem:koniec ligatury na dole	!
8ryy	.	8r	.	1E-	o-	.	.	4d\	-tis-	.	.	1g	o-	f	(4dd\]	.	f	8B-/L	.	8r	f	(2.gg\	f	2ee-/	1g	.	(1E-	f > ]]	(2.gg/	2.g\	f	(4dd\]	f	(4ddd\]	f
!	!	!	!LO:DY:b	!	!	!	!	!	!	!	!	!	!	!	!	!	!	!	!	!	!	!	!	!	!	!	!	!	!	!	!	!	!	!	!
8E-\Lyy	f	8E-\L	f	.	.	.	.	.	.	.	.	.	.	.	.	.	.	8B-/	.	8g/L	.	.	.	.	.	.	.	.	.	.	.	.	.	.	.
8G\Jyy	.	8G\J	.	.	.	.	.	8c\	-si-	.	.	.	.	.	4cc\)	.	.	8B-/	.	8g/	.	.	.	.	.	.	.	.	.	.	.	4cc\	.	4ccc\	.
8ryy	.	8r	.	.	.	.	.	8c\	-ma	.	.	.	.	.	.	.	.	8B-/J	.	8g/J	.	.	.	.	.	.	.	.	.	.	.	.	.	.	.
8ryy	.	8r	.	.	.	.	.	4B-\	in-	.	.	.	.	.	4b-\	-ra	.	8G/L	.	(8b-^/L	.	.	.	4b-/	.	.	.	.	.	.	.	4b-\	.	4bb-\	.
8E-\Lyy	.	8E-\L	.	.	.	.	.	.	.	.	.	.	.	.	.	.	.	8B-/	.	8g/)	.	.	.	.	.	.	.	.	.	.	.	.	.	.	.
8G\Jyy	.	8G\J	.	.	.	.	.	4c\	-vio-	.	.	.	.	.	4cc\	pro	.	8B-/	.	8g/	.	4cc\)	.	4cc/	.	.	.	.	4g/	4c\	.	4cc\	.	4ccc\)	.
8ryy	.	8r	.	.	.	.	.	.	.	.	.	.	.	.	.	.	.	8B-/J	.	8g/J	.	.	.	.	.	.	.	.	.	.	.	.	.	.	.
=26	=26	=26	=26	=26	=26	=26	=26	=26	=26	=26	=26	=26	=26	=26	=26	=26	=26	=26	=26	=26	=26	=26	=26	=26	=26	=26	=26	=26	=26	=26	=26	=26	=26	=26	=26
*	*	*	*	*	*	*	*	*	*	*	*	*	*	*	*	*	*	*2\right	*	*tremolo	*	*	*	*	*	*	*	*	*	*	*	*	*	*	*
!	!	!	!	!	!	!	!	!	!	!	!	!	!	!	!	!	!	!	!	!	!	!	!	!LO:TX:t=P:problem:cor I:1cc poprawione na 1ee	!	!	!	!	!	!	!	!	!	!	!
!	!	!	!	!	!	!	!	!	!	!	!	!	!	!	!	!	!	!	!	!	!	!	!	!LO:TX:t=P:problem:cor II:2cc poprawione na 4e	!	!LO:HP:a	!	!	!	!	!	!	!	!	!
8ryy	.	8r	.	4D\	-ra.	.	.	4.d\	-la-	.	.	8d\	-ra	.	2.dd\	no-	.	8d\L	.	8f#X/L	.	1dd	>	[1dd	4d\	>	2D\)	.	2f#X/	2d\	.	2dd\)	.	(1ddd	.
!	!	!	!LO:HP:b	!	!	!	!	!	!	!	!	!	!	!	!	!	!	!	!	!	!	!	!	!	!	!	!	!	!	!	!	!	!	!	!
8D\Lyy	>	8D\L	>	.	.	.	.	.	.	.	.	8d\	o-	>	.	.	>	8d\	.	8f#X/	>	.	.	.	.	.	.	.	.	.	>	.	.	.	.
8A\Jyy	.	8A\J	.	4r	.	.	.	.	.	.	.	8d\	-ra	.	.	.	.	8d\	.	8f#X/	.	.	.	.	4rd	.	.	.	.	.	.	.	.	.	.
8ryy	.	8r	.	.	.	.	.	8d\	-ta in	.	.	8d\	pro	.	.	.	.	8d\J	.	8f#X/J	.	.	.	.	.	.	.	.	.	.	.	.	.	.	.
8ryy	.	8r	.	2r	.	.	.	4d\	a-	.	.	4d\	no-	.	.	.	.	(8f#X\L	.	(8dd/L	.	.	.	.	2re	.	2r	.	2a/)	2f#X\	.	2r	.	.	.
8AA/Lyy	]	8AA/L	]	.	.	.	.	.	.	.	.	.	.	]	.	.	]	8d\)	.	8f#/)	.	.	.	.	.	.	.	.	.	.	.	.	.	.	.
8D/Jyy	.	8D/J	.	.	.	.	.	4d\	-mo-	.	.	8d\	-bis.	.	4dd\	-bis.	.	8d\	.	8f#/	.	.	.	.	.	.	.	.	.	.	.	.	.	.	.
8ryy	.	8r	.	.	.	.	.	.	.	.	.	8r	.	.	.	.	.	8d\J	.	8f#/J	]]	.	]	.	.	]	.	.	.	.	]	.	.	.	.
*	*	*	*	*	*	*	*	*	*	*	*	*	*	*	*	*	*	*	*	*	*	*	*	*	*	*	*	*	*v	*v	*	*	*	*	*
=27	=27	=27	=27	=27	=27	=27	=27	=27	=27	=27	=27	=27	=27	=27	=27	=27	=27	=27	=27	=27	=27	=27	=27	=27	=27	=27	=27	=27	=27	=27	=27	=27	=27	=27
!	!	!	!	!	!	!	!	!	!	!	!	!	!	!	!	!	!LO:DY:t=ppp	!	!	!	!	!	!	!LO:TX:t=P:problem:cor I:1cc poprawione na 1ee	!	!LO:DY:a	!	!	!	!	!	!	!	!
8ryy	.	8r	.	1r	.	.	.	4d\	-ra-	.	.	1r	.	.	(4.dd\	Ma-	ppp	8r	.	8r	.	(4.dd\	pp	1dd_	1re	ppp	1ryy	.	[1a-X [>1f	ppp	1r	.	4dd\)	.
!	!	!	!LO:DY:b	!	!	!	!	!	!	!	!	!	!	!	!	!	!	!	!	!	!	!	!	!	!	!	!	!	!	!	!	!	!	!
8C/Lyy	pp	8C/L	pp	.	.	.	.	.	.	.	.	.	.	.	.	.	.	8A-X/L	.	8fn/L	pp	.	.	.	.	.	.	.	.	.	.	.	.	.
!	!	!	!	!	!	!	!	!	!	!	!	!	!	!	!LO:TX:a:i:t=Solo.	!	!	!	!	!	!	!	!	!	!	!	!	!	!	!	!	!	!	!
8D/Jyy	.	8D/J	.	.	.	.	.	4F/	-ta,	.	.	.	.	.	.	.	.	8A-X/	.	8fn/	.	.	.	.	.	.	.	.	.	.	.	.	4r	.
8ryy	.	8r	.	.	.	.	.	.	.	.	.	.	.	.	8ee-\)	.	.	8A-X/J	.	8fn/J	.	8ee-\	.	.	.	.	.	.	.	.	.	.	.	.
8ryy	.	8r	.	.	.	.	.	2r	.	.	.	.	.	.	4dd\	-ter	.	(8F/L	.	(8a-X/L	.	4dd\	.	.	.	.	.	.	.	.	.	.	2r	.
8C/Lyy	.	8C/L	.	.	.	.	.	.	.	.	.	.	.	.	.	.	.	8A-/)	.	8f/)	.	.	.	.	.	.	.	.	.	.	.	.	.	.
!	!	!	!	!	!	!	!	!	!	!	!LO:DY:b	!	!	!	!	!	!	!	!	!	!	!	!	!	!	!	!	!	!	!	!	!	!	!
8F/Jyy	.	8F/J	.	.	.	.	.	.	.	.	ppp	.	.	.	4cc#X\	a-	.	8A-/	.	8f/	.	4cc#X\	.	.	.	.	.	.	.	.	.	.	.	.
8ryy	.	8r	.	.	.	.	.	.	.	.	.	.	.	.	.	.	.	8A-/J	.	8f/J	.	.	.	.	.	.	.	.	.	.	.	.	.	.
*	*	*	*	*	*	*	*	*	*	*	*	*	*	*	*	*	*	*	*	*	*	*	*	*v	*v	*	*	*	*	*	*	*	*	*
=28	=28	=28	=28	=28	=28	=28	=28	=28	=28	=28	=28	=28	=28	=28	=28	=28	=28	=28	=28	=28	=28	=28	=28	=28	=28	=28	=28	=28	=28	=28	=28	=28	=28
*	*	*	*	*	*	*	*	*	*	*	*	*	*	*	*	*	*	*rep	*	*rep	*	*	*	*	*	*	*	*rep	*	*	*	*	*
*	*	*	*	*	*	*	*	*	*	*	*	*	*	*	*	*	*	*	*	*	*	*	*	*^	*	*	*	*	*	*	*	*	*
!	!	!	!	!	!	!	!	!LO:TX:a:i:t=tutti.	!	!	!	!	!	!LO:DY:rj:b	!	!	!	!	!	!	!	!	!	!LO:TX:t=P:problem:cor I:1cc poprawione na 1ee	!	!	!	!	!	!	!	!	!	!
8ryy	.	8r	.	8r	.	.	.	8r	.	.	.	8r	.	ppp	4.dd\	-ma-	.	8r	.	8r	.	([<1dd)	.	1dd_	1re	.	1ryy	.	1a-_ 1f_>	.	1r	.	1r	.
!	!	!	!	!	!	!	!LO:DY:a	!	!	!	!	!	!	!	!	!	!	!	!	!	!	!	!	!	!	!	!	!	!	!	!	!	!	!
8C\Lyy	.	8C\L	.	8C/	/o-	.	ppp	8A-X\	/o-	.	.	8f\	o-	.	.	.	.	8A-X/L	.	8f/L	.	.	.	.	.	.	.	.	.	.	.	.	.	.
8A-X\Jyy	.	8A-X\J	.	8C/	-ra	.	.	8A-\	-ra	.	.	8f\	-ra	.	.	.	.	8A-X/	.	8f/	.	.	.	.	.	.	.	.	.	.	.	.	.	.
!LO:TX:t=P:problem:usunięta poprawka - wykreślona 8r	!	!LO:TX:t=P:problem:usunięta poprawka - wykreślona 8r	!	!	!	!	!	!	!	!	!	!	!	!	!	!	!	!	!	!	!	!	!	!	!	!	!	!	!	!	!	!	!	!
8ryy	.	8r	.	8C/	pro	.	.	8A-\	pro	.	.	8f\	pro	.	8dd\	-bi-	.	8A-X/J	.	8f/J	.	.	.	.	.	.	.	.	.	.	.	.	.	.
8ryy	.	8r	.	4F\	no-	.	.	4A-\	no-	.	.	4f\	no-	.	4dd\	-lis	.	(8F/L	.	(8a-X/L	.	.	.	.	.	.	.	.	.	.	.	.	.	.
8C\Lyy	.	8C\L	.	.	.	.	.	.	.	.	.	.	.	.	.	.	.	8A-/)	.	8f/)	.	.	.	.	.	.	.	.	.	.	.	.	.	.
8F\Jyy	.	8F\J	.	8C/	-bis	.	.	8A-\	-bis	.	.	8f\	-bis	.	4r	.	.	8A-/	.	8f/	.	.	.	.	.	.	.	.	.	.	.	.	.	.
8ryy	.	8r	.	8r	.	.	.	8r	.	.	.	8r	.	.	.	.	.	8A-/J	.	8f/J	.	.	.	.	.	.	.	.	.	.	.	.	.	.
*	*	*	*	*	*	*	*	*	*	*	*	*	*	*	*	*	*	*Xrep	*	*Xrep	*	*	*	*	*	*	*	*	*Xrep	*	*	*	*	*
*	*	*	*	*	*	*	*	*	*	*	*	*	*	*	*	*	*	*	*	*	*	*	*	*v	*v	*	*	*	*	*	*	*	*	*
=29	=29	=29	=29	=29	=29	=29	=29	=29	=29	=29	=29	=29	=29	=29	=29	=29	=29	=29	=29	=29	=29	=29	=29	=29	=29	=29	=29	=29	=29	=29	=29	=29	=29
*	*	*	*	*	*	*	*	*	*	*	*	*	*	*	*	*	*	*rep	*	*rep	*	*	*	*	*	*	*	*	*	*	*	*	*
*	*	*	*	*	*	*	*	*	*	*	*	*	*	*	*	*	*	*	*	*	*	*	*	*^	*	*	*	*	*	*	*	*	*
!	!	!	!	!	!	!	!	!	!	!	!	!	!	!	!	!	!	!	!	!	!	!	!	!LO:TX:t=P:problem:cor I:1cc poprawione na 1ee	!	!	!	!	!	!	!	!	!	!
8ryy	.	8r	.	1r	.	.	.	1r	.	.	.	1r	.	.	4.dd\	ma-	.	8r	.	8r	.	4.dd\]	.	1dd_	1re	.	1ryy	.	(>1a-X] 1f]	.	1r	.	1r	.
8C/Lyy	.	8C/L	.	.	.	.	.	.	.	.	.	.	.	.	.	.	.	8A-X/L	.	8f/L	.	.	.	.	.	.	.	.	.	.	.	.	.	.
8D/Jyy	.	8D/J	.	.	.	.	.	.	.	.	.	.	.	.	.	.	.	8A-X/	.	8f/	.	.	.	.	.	.	.	.	.	.	.	.	.	.
!LO:TX:t=P:problem:usunięta poprawka - wykreślona 8r	!	!LO:TX:t=P:problem:usunięta poprawka - wykreślona 8r	!	!	!	!	!	!	!	!	!	!	!	!	!	!	!	!	!	!	!	!	!	!	!	!	!	!	!	!	!	!	!	!
8ryy	.	8r	.	.	.	.	.	.	.	.	.	.	.	.	8ee-\	-ter	.	8A-X/J	.	8f/J	.	16ff\LL	.	.	.	.	.	.	.	.	.	.	.	.
.	.	.	.	.	.	.	.	.	.	.	.	.	.	.	.	.	.	.	.	.	.	16ee-\JJ	.	.	.	.	.	.	.	.	.	.	.	.
8ryy	.	8r	.	.	.	.	.	.	.	.	.	.	.	.	4dd\	ad-	.	(8F/L	.	(8a-X/L	.	4dd\	.	.	.	.	.	.	.	.	.	.	.	.
8C\Lyy	.	8C\L	.	.	.	.	.	.	.	.	.	.	.	.	.	.	.	8A-/)	.	8f/)	.	.	.	.	.	.	.	.	.	.	.	.	.	.
8F\Jyy	.	8F\J	.	.	.	.	.	.	.	.	.	.	.	.	4cc#X\	-mi-	.	8A-/	.	8f/	.	4cc#X\	.	.	.	.	.	.	.	.	.	.	.	.
8ryy	.	8r	.	.	.	.	.	.	.	.	.	.	.	.	.	.	.	8A-/J	.	8f/J	.	.	.	.	.	.	.	.	.	.	.	.	.	.
*	*	*	*	*	*	*	*	*	*	*	*	*	*	*	*	*	*	*	*	*	*	*	*	*v	*v	*	*	*	*	*	*	*	*	*
*	*	*	*	*	*	*	*	*	*	*	*	*	*	*	*	*	*	*Xrep	*	*Xrep	*	*	*	*	*	*	*	*	*	*	*	*	*
!!LO:LB:g=original
=30	=30	=30	=30	=30	=30	=30	=30	=30	=30	=30	=30	=30	=30	=30	=30	=30	=30	=30	=30	=30	=30	=30	=30	=30	=30	=30	=30	=30	=30	=30	=30	=30	=30
*	*	*	*	*	*	*	*	*	*	*	*	*	*	*	*	*	*	*	*	*	*	*	*	*	*	*	*	*^	*	*	*	*	*
!	!	!	!	!	!	!	!	!	!	!	!	!	!	!	!	!	!	!	!	!	!	!	!	!LO:TX:t=P:problem:1cc poprawione na 1ee	!	!	!	!	!	!	!	!	!	!
!	!	!	!	!	!	!	!	!	!	!	!	!	!	!	!	!	!	!	!	!	!	!LO:TX:a:t=P:problem:brak zakończenia łuku	!	!LO:TX:a:t=P:problem:brak zakończenia ligatury	!	!	!	!	!	!	!	!	!	!
8ryy	.	8r	.	8r	.	.	.	8r	.	.	.	8r	.	.	4.dd\	-ra-	.	8An/L	.	8f#X/L	.	[1dd)	.	1dd]	<	1ryy	.	2a/	2f#X\	<	2r	.	2r	.
!	!	!	!	!	!	!	!	!LO:TX:t=P:problem:8d poprawione na 8D	!	!	!	!	!	!	!	!	!	!	!	!	!	!	!	!	!	!	!	!	!	!	!	!	!	!
8C/Lyy	.	8C/L	.	8D\	o-	.	.	8D\	o-	.	.	8d\	o-	.	.	.	.	8An/	.	8f#X/	.	.	.	.	.	.	.	.	.	.	.	.	.	.
!	!	!	!	!	!	!	!	!LO:TX:t=P:problem:8d poprawione na 8D	!	!	!	!	!	!	!	!	!	!	!	!	!	!	!	!	!	!	!	!	!	!	!	!	!	!
8D/Jyy	.	8D/J	.	8D\	-ra	.	.	8D\	-ra	.	.	8d\	-ra	.	.	.	.	8An/	.	8f#X/	.	.	.	.	.	.	.	.	.	.	.	.	.	.
!	!	!	!	!	!	!	!	!LO:TX:t=P:problem:8d poprawione na 8D	!	!	!	!	!	!	!	!	!	!	!	!	!	!	!	!	!	!	!	!	!	!	!	!	!	!
8ryy	.	8r	.	8D\	pro	.	.	8D\	pro	.	.	8d\	pro	.	8dd\	-bi-	.	8An/J	.	8f#X/J	.	.	.	.	.	.	.	.	.	.	.	.	.	.
*	*	*	*	*	*	*	*	*	*	*	*	*	*	*	*	*	*	*Xtremolo	*	*	*	*	*	*	*	*	*	*	*	*	*	*	*	*
!	!	!	!	!	!	!	!	!LO:TX:t=P:problem:4d poprawione na 4D	!	!	!	!	!	!	!	!	!	!	!	!	!	!	!	!	!	!	!	!	!	!	!	!	!	!
8ryy	.	8r	.	4D\	no-	.	.	4D\	no-	.	.	4d\	no-	.	8dd\	-lis,	.	(8G^/L	.	(8g^/L	.	.	.	.	.	.	.	2b-/)	2g\	.	4r	.	4r	.
8BB-/Lyy	.	8BB-/L	.	.	.	.	.	.	.	.	.	.	.	.	8r	.	.	8d/)	.	8d/)	.	.	.	.	[	.	.	.	.	[	.	.	.	.
!	!	!	!	!	!	!	!	!	!	!	!	!	!	!	!LO:TX:a:i:t=tutti.	!	!	!	!	!	!	!	!	!	!	!	!	!	!	!	!	!LO:DY:t=p	!	!
8D/Jyy	.	8D/J	.	8D\	-bis/	.	.	8d\	-bis/	.	.	8d\	-bis	.	[4dd\	ma-	.	8d/|	.	8b-/	.	.	.	.	.	.	.	.	.	.	[4dd\	p	[4ddd\	p
8ryy	.	8r	.	8r	.	.	.	8r	.	.	.	8r	.	.	.	.	.	8B-/J|	.	8g/J	.	.	.	.	.	.	.	.	.	.	.	.	.	.
=31	=31	=31	=31	=31	=31	=31	=31	=31	=31	=31	=31	=31	=31	=31	=31	=31	=31	=31	=31	=31	=31	=31	=31	=31	=31	=31	=31	=31	=31	=31	=31	=31	=31	=31
*	*	*	*	*	*	*	*	*	*	*	*	*	*	*	*	*	*	*	*	*	*	*	*	*^	*	*	*	*	*	*	*	*	*	*
*	*	*	*	*	*	*	*	*	*	*	*	*	*	*	*	*	*	*tremolo	*	*	*	*	*	*	*	*	*	*	*	*	*	*	*	*	*
8ryy	.	8r	.	(4A\	o-	.	.	(4c\	o-	.	.	(4f#X\	o-	.	4.dd\]	.	.	8c/L	<	8f#X 8d/L	<	(4.dd\]	<	(2dd/	2d\	<	(4A\	<	(4cc/	4f#X\	.	(4.dd\]	.	(4.ddd\]	.
!	!	!	!LO:HP:b	!	!	!	!	!	!	!	!	!	!	!	!	!	!	!	!	!	!	!	!	!	!	!	!	!	!	!	!	!	!	!	!
8D/Lyy	<	8D/L	<	.	.	.	.	.	.	.	.	.	.	.	.	.	.	8c/J	.	8f#X 8d/J	.	.	.	.	.	.	.	.	.	.	<	.	<	.	<
!	!	!	!	!	!	!	!LO:DY:a	!	!	!	!LO:DY:a	!	!	!LO:DY:a	!	!	!	!	!	!	!	!	!	!	!	!	!	!	!	!	!	!	!	!	!
8GG/Jyy	.	8GG/J	.	4G\)	.	.	<	4B-\)	.	.	<	4g\)	.	<	.	.	.	8B-/L	.	8g 8d/L	.	.	.	.	.	.	4G\	.	4b-/	4g\	.	.	.	.	.
8ryy	.	8r	.	.	.	.	.	.	.	.	.	.	.	.	8ee-\	-ter	.	8B-/J	.	8g 8d/J	.	8ee-\	.	.	.	.	.	.	.	.	.	8ee-\	.	8eee-\	.
!	!	!	!	!	!	!	!	!	!	!	!	!	!	!	!	!	!	!	!	!LO:SIC:v:n=2:s=4fn	!	!	!	!	!	!	!	!	!	!	!	!	!	!	!
8ryy	.	8r	.	4.Fn\	-ra	.	.	4.A\	-ra	.	.	4fn\	-ra	.	4ff\	cre-	.	8A/L	.	8cc 8f#/L	.	4ff\	.	2cc/	2f\	.	2A\	.	2cc/	4f\	.	4ff\	.	4fff\	.
8C\Lyy	.	8C\L	.	.	.	.	.	.	.	.	.	.	.	.	.	.	.	8A/J	.	8cc 8f#/J	.	.	[	.	.	.	.	.	.	.	.	.	.	.	.
8F\Jyy	.	8F\J	.	.	.	.	[	.	.	.	.	4e-\	pro	[	4cc\	-a-	.	8f 8A/L	[	8e-/L	[	4cc\	.	.	.	[	.	[	.	4e-\	[	4cc\	[	4ccc\	.
8ryy	[	8r	[	8F\	pro	.	.	8c\	pro	.	[	.	.	.	.	.	.	8f 8A/J	.	8e-/J	.	.	.	.	.	.	.	.	.	.	.	.	.	.	.
=32	=32	=32	=32	=32	=32	=32	=32	=32	=32	=32	=32	=32	=32	=32	=32	=32	=32	=32	=32	=32	=32	=32	=32	=32	=32	=32	=32	=32	=32	=32	=32	=32	=32	=32	=32
!	!	!	!	!	!	!	!LO:DY:a	!	!	!	!	!	!	!	!	!	!	!	!	!	!	!	!	!	!	!	!	!	!	!	!	!	!	!	!
8ryy	.	8r	.	2B-\	no-	.	>	[1B-	no-	.	.	(4d\	no-	.	4dd\	-to-	.	8f 8B-\L	>	8d/L	>	4dd\	.	(1b-)	4B-\	.	2B-\	>	4b-/	4d\	.	4dd\	.	4ddd\	[
8BB-/Lyy	.	8BB-/L	.	.	.	.	.	.	.	.	>	.	.	.	.	.	.	8f 8B-\	.	8d/	.	.	.	.	.	.	.	.	.	.	>	.	.	.	.
!	!	!	!LO:HP:b	!	!	!	!	!	!	!	!	!	!	!LO:DY:a	!	!	!	!	!	!	!	!	!	!	!	!	!	!	!	!	!	!	!	!	!
8D/Jyy	>	8D/J	>	.	.	.	.	.	.	.	.	4f#X\)	.	>	4a\	-ris,	.	8f 8B-\	.	8d/	.	4a/	>	.	4rc	>	.	.	4a/	4f#X\	.	4a\	>	4aa\	>
8ryy	.	8r	.	.	.	.	.	.	.	.	.	.	.	.	.	.	.	8f 8B-\J	.	8d/J	.	.	.	.	.	.	.	.	.	.	.	.	.	.	.
!	!	!	!	!	!	!	!	!	!	!	!	!LO:N:vis=4.	!	!	!	!	!	!	!	!	!	!	!	!	!	!	!	!	!	!	!	!	!	!	!
8ryy	.	8r	.	4.E-\	-bis,	.	.	.	.	.	.	4g\	-bis	.	4.b-\	ma-	.	8g 8B-\L	.	8e-/L	.	4.b-/	.	.	(2B-^>\	.	(2E-^\)	.	4.b-/	4.g^\	.	4.b-\	.	4.bb-\	.
8E-\Lyy	.	8E-\L	.	.	.	.	.	.	.	.	.	.	.	.	.	.	.	8g 8B-\	.	8e-/	]	.	.	.	.	.	.	.	.	.	.	.	.	.	.
8G\Jyy	]	8G\J	]	.	.	.	]	.	.	.	]	8g\	.	]	.	.	.	8g 8B-\	]	8e-/	.	.	.	.	.	.	.	]	.	.	.	.	.	.	.
8ryy	.	8r	.	8E-\	pro	.	.	.	.	.	.	8e-\	pro	.	8g\	-ter	.	8g 8B-\J	.	8e-/J	.	8g/)	]]	.	.	.	.	.	8g/)	8e-\	.	8g\	]	8gg\	]]
*	*	*	*	*	*	*	*	*	*	*	*	*	*	*	*	*	*	*Xtremolo	*	*Xtremolo	*	*	*	*	*	*	*	*	*	*	*	*	*	*	*
=33	=33	=33	=33	=33	=33	=33	=33	=33	=33	=33	=33	=33	=33	=33	=33	=33	=33	=33	=33	=33	=33	=33	=33	=33	=33	=33	=33	=33	=33	=33	=33	=33	=33	=33	=33
!LO:TX:b:t== B.	!	!	!	!	!	!	!	!	!	!	!	!	!	!	!LO:TX:t=P:problem:4.f poprawione na 4f	!	!	!	!	!LO:TX:a:t=P:problem:zygzak na początku taktu, może "B"?	!	!LO:TX:a:t=B	!	!	!	!	!	!	!	!	!	!	!	!LO:TX:a:t== B.	!
8ryy	.	8r	.	(1F	bo-	.	.	(2B-\]	.	.	.	(2d\	no-	.	4f/	Sal-	.	8B-\L	pp	8d/L	pp	(2f/	.	4f/)	4f\)	]	4F\)	.	4f/	4d\	]	4f/)	.	4ff\)	.
8F\Lyy	.	8F\L	.	.	.	.	.	.	.	.	.	.	.	.	.	.	.	8d\	.	8f/	.	.	.	.	.	.	.	.	.	.	.	.	.	.	.
!	!	!	!	!	!	!	!	!	!	!	!	!	!	!	!LO:TX:t=P:problem:8f poprawione na 4f	!	!	!	!	!	!	!	!	!	!	!	!	!	!	!	!	!	!	!	!
!	!	!	!	!	!	!	!	!	!	!	!	!	!	!	!LO:N:vis=8	!	!	!	!	!	!	!	!	!	!	!	!	!	!	!	!	!	!	!	!
8B-\Jyy	.	8B-\J	.	.	.	.	.	.	.	.	.	.	.	.	4f/	-va-	.	8d\	.	8b-/	.	.	.	4r	4ryy	.	4r	.	4r	4ryy	.	4r	.	4r	.
8ryy	.	8r	.	.	.	.	.	.	.	.	.	.	.	.	.	.	.	8f\J	.	8dd/J	.	.	pp	.	.	pp	.	pp	.	.	pp	.	.	.	.
*	*	*	*	*	*	*	*	*	*	*	*	*	*	*	*	*	*	*tremolo	*	*	*	*	*	*	*	*	*	*	*	*	*	*	*	*	*
!	!	!	!	!	!	!	!	!	!	!	!	!	!	!	!LO:TX:t=P:problem:4.ee poprawione na 4..ee	!	!	!	!	!	!	!	!	!	!	!	!	!	!	!	!	!	!LO:DY:rj	!	!LO:DY:rj
8ryy	.	8r	.	.	.	.	.	4..A\	.	.	.	4..c\	.	.	(4..ee-\	-to-	.	8f\L	.	8cc/L	.	4..ee-\	.	(2cc/	(2f\	.	(2FF/	.	(2a/	(4..e-\	.	(4..ee-\	pp >	(2aa\	pp
!LO:TX:t=P:problem:mixed beam	!	!LO:TX:t=P:problem:mixed beam	!	!	!	!	!	!	!	!	!	!	!	!	!	!	!	!	!	!	!	!	!	!	!	!	!	!	!	!	!	!	!	!	!
8FF/Lyy	.	8FF/L	.	.	.	.	.	.	.	.	.	.	.	.	.	.	.	8f\	.	8cc/	.	.	.	.	.	.	.	.	.	.	.	.	.	.	>
8F\Jyy	.	8F\J	.	.	.	.	.	.	.	.	.	.	.	.	.	.	.	8f\	.	8cc/	.	.	.	.	.	.	.	.	.	.	.	.	.	.	.
8ryy	.	8r	.	.	.	.	.	.	.	.	.	.	.	.	.	.	.	8f\J	.	8f/J	.	.	.	.	.	.	.	.	.	.	.	.	.	.	.
!	!	!	!	!	!	!	!	!	!	!	!	!	!	!	!LO:TX:t=P:problem:8dd poprawione na 16dd	!	!	!	!	!	!	!	!	!	!	!	!	!	!	!	!	!	!	!	!
.	.	.	.	.	.	.	.	16B-\	.	.	.	16B-/)	.	.	16dd\)	.	.	.	.	.	.	16dd\)	.	.	.	.	.	.	.	16d\)	.	16dd\)	]]	.	]]
=34	=34	=34	=34	=34	=34	=34	=34	=34	=34	=34	=34	=34	=34	=34	=34	=34	=34	=34	=34	=34	=34	=34	=34	=34	=34	=34	=34	=34	=34	=34	=34	=34	=34	=34	=34
.	.	.	.	.	.	.	.	.	.	.	.	.	.	.	.	.	.	.	.	.	.	.	.	.	.	.	.	.	.	.	.	.	.	8qbb-/)	.
8ryy	.	8r	.	8BB-/)	-bis,	.	.	4B-\)	-bis	.	.	4B-/	-bis.	.	4dd\	-ris	.	8r	.	8r	.	2.dd\	.	8b-/)	8b-\)	.	8BB-/)	.	4b-/)	4d\	.	4dd\	.	4bb-\	.
!	!	!	!	!	!	!	!	!	!	!	!	!	!	!	!	!	!	!	!	!	!	!	!	!	!	!	!LO:TX:b:t=Solo	!	!	!	!	!	!	!	!
8BB-/Lyy	.	8BB-/L	.	8F\	o-	.	.	.	.	.	.	.	.	.	.	.	.	8F/L	.	8fL 8d/	.	.	.	8r	8ryy	.	(8F\L	.	.	.	.	.	.	.	.
8D/Jyy	.	8D/J	.	8G\	-ra	.	.	4r	.	.	.	4ryy	.	.	4r	.	.	8G/	.	8f 8d/	.	.	.	4r	4ryy	.	8G\	.	4r	4ryy	.	4r	.	4r	.
8ryy	.	8r	.	8A\	pro	.	.	.	.	.	.	.	.	.	.	.	.	8A/J	.	8fJ 8d/	.	.	.	.	.	.	8A\J	.	.	.	.	.	.	.	.
8ryy	.	8r	.	4B-\	no-	.	.	2r	.	.	.	2ryy	.	.	2r	.	.	(8B-^/L	.	(8b-^/L	.	.	.	2r	2ryy	.	8B-\L	.	2r	2ryy	.	2r	.	2r	.
8F\Lyy	.	8F\L	.	.	.	.	.	.	.	.	.	.	.	.	.	.	.	8D/)	.	8B-/)	.	.	.	.	.	.	8D^\	.	.	.	.	.	.	.	.
8B-\Jyy	.	8B-\J	.	8BB-/	-bis	.	.	.	.	.	.	.	.	.	.	.	.	8G/	.	8B-'/	.	4dd\	.	.	.	.	8G\	.	.	.	.	.	.	.	.
8ryy	.	8r	.	8r	.	.	.	.	.	.	.	.	.	.	.	.	.	8F/J	.	8B-'/J	.	.	.	.	.	.	8F\J)	.	.	.	.	.	.	.	.
!!LO:LB:g=original
=35	=35	=35	=35	=35	=35	=35	=35	=35	=35	=35	=35	=35	=35	=35	=35	=35	=35	=35	=35	=35	=35	=35	=35	=35	=35	=35	=35	=35	=35	=35	=35	=35	=35	=35	=35
*	*	*	*	*	*	*	*	*	*	*	*	*	*	*	*	*	*	*	*	*tremolo	*	*	*	*	*	*	*	*	*	*	*	*	*	*	*
!	!	!	!	!	!	!	!	!LO:TX:a:i:t=Solo.	!	!	!	!	!	!	!	!	!	!	!LO:DY:t=p	!	!LO:DY:t=p	!	!LO:DY:rj:t=p	!	!	!LO:DY:rj:t=p	!	!LO:DY:rj:t=p	!	!	!LO:DY:rj	!	!	!	!
8r	.	8r	.	1r	.	.	.	4.c\	vir-	.	.	1r	.	.	1r	.	.	8r	p	8r	p	(4.cc\	p	2cc/	2rd	p	(2En\	p	4.cc/	2g\	p	1r	.	1r	.
8En\L	.	8EEn/L	.	.	.	.	.	.	.	.	.	.	.	.	.	.	.	8G/L	.	8B-/L	.	.	.	.	.	.	.	.	.	.	.	.	.	.	.
8G\J	.	8GG/J	.	.	.	.	.	.	.	.	.	.	.	.	.	.	.	8G/	.	8B-/	.	.	.	.	.	.	.	.	.	.	.	.	.	.	.
8r	.	8r	.	.	.	.	.	8d\	-go	.	.	.	.	.	.	.	.	8G/J	.	8B-/J	.	8dd\	.	.	.	.	.	.	8dd/	.	.	.	.	.	.
8r	.	8r	.	.	.	.	.	4c\	pru-	.	.	.	.	.	.	.	.	(8B-^/L	.	(8g^/L	.	4cc\	.	2dd/	2b-\	.	2F\	.	4cc/	2f\	.	.	.	.	.
*	*	*	*	*	*	*	*	*	*	*	*	*	*	*	*	*	*	*Xtremolo	*	*Xtremolo	*	*	*	*	*	*	*	*	*	*	*	*	*	*	*
8F\L	.	8FF/L	.	.	.	.	.	.	.	.	.	.	.	.	.	.	.	8G/)	.	8B-/)	.	.	.	.	.	.	.	.	.	.	.	.	.	.	.
8B-\J	.	8BB-/J	.	.	.	.	.	4F/	-de[n]-	.	.	.	.	.	.	.	.	8G/|	.	8B-/|	.	4f/)	.	.	.	.	.	.	4f/	.	.	.	.	.	.
8r	.	8r	.	.	.	.	.	.	.	.	.	.	.	.	.	.	.	8G/J|	.	8B-/J|	.	.	.	.	.	.	.	.	.	.	.	.	.	.	.
*	*	*	*	*	*	*	*	*	*	*	*	*	*	*	*	*	*	*	*	*	*	*	*	*v	*v	*	*	*	*v	*v	*	*	*	*	*
=36	=36	=36	=36	=36	=36	=36	=36	=36	=36	=36	=36	=36	=36	=36	=36	=36	=36	=36	=36	=36	=36	=36	=36	=36	=36	=36	=36	=36	=36	=36	=36	=36	=36
*	*	*	*	*	*	*	*	*	*	*	*	*	*	*	*	*	*	*	*	*	*	*	*	*^	*	*	*	*^	*	*	*	*	*
*	*	*	*	*	*	*	*	*	*	*	*	*	*	*	*	*	*	*rep	*	*rep	*	*	*	*	*	*	*	*	*	*	*	*	*	*	*
!	!	!	!	!	!	!	!	!	!	!	!	!	!	!	!	!	!	!	!	!	!	!LO:TX:t=P:problem:t. 36-48 powtórka t. 20-32:come sopra A=B.	!	!LO:TX:t=P:problem:t. 36-48 powtórka t. 20-32:come sopra A=B.	!	!	!	!	!	!	!	!	!	!	!
!	!	!	!	!	!	!	!	!	!	!	!	!	!	!	!	!	!	!LO:TX:t=P:problem:t. 36-48 powtórka t. 20-32:come sopra A=B.	!	!LO:TX:t=P:problem:t. 36-48 powtórka t. 20-32:come sopra A=B.	!	!LO:TX:b:t=A =	!	!LO:TX:t=P:problem:cor I: 2dd i 2ee poprawione na 1dd	!	!	!LO:TX:t=P:problem:t. 36-48 powtórka t. 20-32:come sopra A=B.	!	!LO:TX:t=P:problem:t. 36-48 powtórka t. 20-32:come sopra A=B.	!	!	!LO:TX:t=P:problem:t. 36-48 powtórka t. 20-32:come sopra A=B.	!	!LO:TX:t=P:problem:t. 36-48 powtórka t. 20-32:come sopra A=B.	!
8r	.	8r	.	8r	.	.	.	4.c\	-tis-	.	.	8r	.	.	8r	.	.	8ryy	.	8ryy	.	2.cc\yy	.	[1ccyy	[1b-yy	.	2G\yy	.	2.cc/yy	2eX\yy	.	1ryy	.	1ryy	.
8G\L	.	8GG/L	.	8G\	o-	.	.	.	.	.	.	8en\	o-	.	8b-\	o-	.	8G/Lyy	.	8B-/Lyy	.	.	.	.	.	.	.	.	.	.	.	.	.	.	.
8B-\J	.	8BB-/J	.	8G\	-/ra	.	.	.	.	.	.	8e\	-/ra	.	8b-\	-ra	.	8G/yy	.	8B-/yy	.	.	.	.	.	.	.	.	.	.	.	.	.	.	.
8r	.	8r	.	8G\	pro	.	.	8c\	-si-	.	.	8e\	pro	.	8b-\	pro	.	8G/Jyy	.	8B-/Jyy	.	.	.	.	.	.	.	.	.	.	.	.	.	.	.
8r	.	8r	.	4F\	no-	.	.	4c\	-ma,	.	.	4f\	no-	.	4b-\	no-	.	(8B-^/Lyy	.	(8g^/Lyy	.	.	.	.	.	.	2F\)yy	.	.	2f\yy	.	.	.	.	.
8F\L	.	8FF/L	.	.	.	.	.	.	.	.	.	.	.	.	.	.	.	8G/)yy	.	8B-/)yy	.	.	.	.	.	.	.	.	.	.	.	.	.	.	.
8B-\J	.	8BB-/J	.	8F\	-bis/	.	.	4r	.	.	.	8f\	-bis/	.	8b-\	-bis	.	8G/yy	.	8B-/yy	.	([<4cc\yy	.	.	.	.	.	.	([<4cc/yy	.	.	.	.	.	.
8r	.	8r	.	8r	.	.	.	.	.	.	.	8r	.	.	8r	.	.	8G/Jyy	.	8B-/Jyy	.	.	.	.	.	.	.	.	.	.	.	.	.	.	.
*	*	*	*	*	*	*	*	*	*	*	*	*	*	*	*	*	*	*Xrep	*	*Xrep	*	*	*	*	*	*	*	*	*	*	*	*	*	*	*
*	*	*	*	*	*	*	*	*	*	*	*	*	*	*	*	*	*	*	*	*	*	*	*	*v	*v	*	*	*	*v	*v	*	*	*	*	*
*	*	*	*	*	*	*	*	*	*	*	*	*	*	*	*	*	*	*Xrep	*	*Xrep	*	*	*	*	*	*	*	*	*	*	*	*	*
=37	=37	=37	=37	=37	=37	=37	=37	=37	=37	=37	=37	=37	=37	=37	=37	=37	=37	=37	=37	=37	=37	=37	=37	=37	=37	=37	=37	=37	=37	=37	=37	=37	=37
*	*	*	*	*	*	*	*	*	*	*	*	*	*	*	*	*	*	*	*	*	*	*	*	*^	*	*	*	*^	*	*	*	*	*
8r	.	8r	.	1r	.	.	.	4.c\	vir-	.	.	1r	.	.	1r	.	.	8ryy	.	8ryy	.	4.cc\]yy	.	1cc_yy	2b-\]yy	.	(2En\yy	.	4.cc/]yy	(2g\yy	.	1ryy	.	1ryy	.
8En\L	.	8EEn/L	.	.	.	.	.	.	.	.	.	.	.	.	.	.	.	8B-/Lyy	.	8c/Lyy	.	.	.	.	.	.	.	.	.	.	.	.	.	.	.
8G\J	.	8GG/J	.	.	.	.	.	.	.	.	.	.	.	.	.	.	.	8B-/yy	.	8c/yy	.	.	.	.	.	.	.	.	.	.	.	.	.	.	.
8r	.	8r	.	.	.	.	.	8d\	-go	.	.	.	.	.	.	.	.	8B-/Jyy	.	8c/Jyy	.	8dd\yy	.	.	.	.	.	.	8dd/yy	.	.	.	.	.	.
8r	.	8r	.	.	.	.	.	4c\	ve-	.	.	.	.	.	.	.	.	4A^/yy	.	(8f^/Lyy	.	4cc\yy	.	.	2a\yy	.	2F\yy	.	4cc/yy	2f\yy	.	.	.	.	.
8F\L	.	8FF/L	.	.	.	.	.	.	.	.	.	.	.	.	.	.	.	.	.	8c/)yy	.	.	.	.	.	.	.	.	.	.	.	.	.	.	.
8B-\J	.	8BB-/J	.	.	.	.	.	4A\	-ne-	.	.	.	.	.	.	.	.	8A/Lyy	.	8c/yy	.	4a\yy	.	.	.	.	.	.	4a/yy	.	.	.	.	.	.
8r	.	8r	.	.	.	.	.	.	.	.	.	.	.	.	.	.	.	8A/Jyy	.	8c/Jyy	.	.	.	.	.	.	.	.	.	.	.	.	.	.	.
=38	=38	=38	=38	=38	=38	=38	=38	=38	=38	=38	=38	=38	=38	=38	=38	=38	=38	=38	=38	=38	=38	=38	=38	=38	=38	=38	=38	=38	=38	=38	=38	=38	=38	=38	=38
*	*	*	*	*	*	*	*	*	*	*	*	*	*	*	*	*	*	*rep	*	*rep	*	*	*	*	*	*	*	*	*	*	*	*	*	*	*
!	!	!	!	!	!	!	!	!LO:TX:t=P:problem:4c poprawione na 2.c	!	!	!	!	!	!	!	!	!	!	!	!	!	!	!	!	!	!	!	!	!	!	!	!	!	!	!
8r	.	8r	.	8r	.	.	.	2.c\	-ran-	.	.	8r	.	.	8r	.	.	8ryy	<	8ryy	<	2.cc\)yy	<	1cc]yy	2b-\yy	.	2G\yy	.	2.cc/)yy	2eX\yy	.	1ryy	.	1ryy	.
8G\L	.	8GG/L	.	8C/	o-	.	.	.	.	.	.	8B-/	o-	.	8en/	o-	.	8B-/Lyy	.	8c/Lyy	.	.	.	.	.	.	.	.	.	.	.	.	.	.	.
8B-\J	.	8BB-/J	.	8C/	-/ra	.	.	.	.	.	.	8B-/	-/ra	.	8e/	-ra	.	8B-/yy	.	8c/yy	.	.	.	.	.	.	.	.	.	.	.	.	.	.	.
8r	.	8r	.	8C/	pro	.	.	.	.	.	.	8B-/	pro	.	8e/	pro	.	8B-/Jyy	.	8c/Jyy	.	.	.	.	.	.	.	.	.	.	.	.	.	.	.
8r	.	8r	.	4F\	no-	.	.	.	.	.	.	4A/	no-	.	4f/	no-	.	4A^/yy	.	(8f^/Lyy	.	.	.	.	2a\yy	.	2F\)yy	.	.	4f\)yy	.	.	.	.	.
8F\L	.	8FF/L	.	.	.	.	.	.	.	.	.	.	.	.	.	.	.	.	.	8c/)yy	.	.	.	.	.	.	.	.	.	.	.	.	.	.	.
!	!	!	!	!	!	!	!	!	!	!	!	!	!	!	!	!	!	!	!	!	!	!	!LO:DY:t=piu forte.	!	!	!	!	!LO:DY:t=piu forte.	!	!	!LO:DY:t=piu forte.	!	!	!	!
8A\J	.	8AA/J	.	8A\	-bis/	.	.	4c\	-da	.	.	8c/	-bis/	.	8a\	-bis	.	8A/Lyy	.	8c/yy	.	(4cc\yy	[ f	.	.	.	.	f	(4cc/yy	[4a\yy	f	.	.	.	.
8r	.	8r	.	8r	.	.	.	.	.	.	.	8r	.	.	8r	.	.	8A/Jyy	[[	8c/Jyy	[[	.	.	.	.	.	.	.	.	.	.	.	.	.	.
*	*	*	*	*	*	*	*	*	*	*	*	*	*	*	*	*	*	*	*	*	*	*	*	*v	*v	*	*	*	*v	*v	*	*	*	*	*
*	*	*	*	*	*	*	*	*	*	*	*	*	*	*	*	*	*	*Xrep	*	*Xrep	*	*	*	*	*	*	*	*	*	*	*	*	*
=39	=39	=39	=39	=39	=39	=39	=39	=39	=39	=39	=39	=39	=39	=39	=39	=39	=39	=39	=39	=39	=39	=39	=39	=39	=39	=39	=39	=39	=39	=39	=39	=39	=39
*	*	*	*	*	*	*	*	*	*	*	*	*	*	*	*	*	*	*	*	*	*	*	*	*^	*	*	*	*^	*	*	*	*	*
8r	.	8r	.	1r	.	.	.	4.d\	vir-	.	.	1r	.	.	1r	.	.	8r	.	8r	.	4.dd\yy	.	[1ddyy	2cc\yy	.	(2F#X\yy	.	4.dd/yy	(2a\]yy	.	1ryy	.	1ryy	.
!	!	!	!LO:DY:b:t=piu forte.	!	!	!	!	!	!	!	!	!	!	!	!	!	!	!	!	!	!	!	!	!	!	!	!	!	!	!	!	!	!	!	!
8F#X\L	.	8FF#X/L	f	.	.	.	.	.	.	.	.	.	.	.	.	.	.	8d\L|yy	.	8c/L|yy	.	.	.	.	.	.	.	.	.	.	.	.	.	.	.
8A\J	.	8AA/J	.	.	.	.	.	.	.	.	.	.	.	.	.	.	.	8d\|yy	.	8c/|yy	.	.	.	.	.	.	.	.	.	.	.	.	.	.	.
8r	.	8r	.	.	.	.	.	8e-\	-go	.	.	.	.	.	.	.	.	8d\J|yy	.	8c/J|yy	.	8ee-\yy	.	.	.	.	.	.	8ee-/yy	.	.	.	.	.	.
8r	.	8r	.	.	.	.	.	4d\	pre-	.	.	.	.	.	.	.	.	(8g^<\Lyy	.	(8B-^>/Lyy	.	4dd\yy	.	.	2b-\yy	.	2G\yy	.	4dd/yy	2g\yy	.	.	.	.	.
8G\L	.	8GG/L	.	.	.	.	.	.	.	.	.	.	.	.	.	.	.	8d\)yy	.	8d/)yy	.	.	.	.	.	.	.	.	.	.	.	.	.	.	.
8B-\J	.	8BB-/J	.	.	.	.	.	4B-\	-di-	.	.	.	.	.	.	.	.	8d\yy	.	8B-/yy	.	4b-\yy	.	.	.	.	.	.	4b-/yy	.	.	.	.	.	.
8r	.	8r	.	.	.	.	.	.	.	.	.	.	.	.	.	.	.	8d\Jyy	.	8B-/Jyy	.	.	.	.	.	.	.	.	.	.	.	.	.	.	.
*	*	*	*	*	*	*	*	*	*	*	*	*	*	*	*	*	*	*	*	*	*	*	*	*v	*v	*	*	*	*v	*v	*	*	*	*	*
!!LO:LB:g=original
=40	=40	=40	=40	=40	=40	=40	=40	=40	=40	=40	=40	=40	=40	=40	=40	=40	=40	=40	=40	=40	=40	=40	=40	=40	=40	=40	=40	=40	=40	=40	=40	=40	=40
*	*	*	*	*	*	*	*	*	*	*	*	*	*	*	*	*	*	*rep	*	*rep	*	*	*	*	*	*	*	*	*	*	*	*	*
*	*	*	*	*	*	*	*	*	*	*	*	*	*	*	*	*	*	*	*	*	*	*	*	*^	*	*	*	*^	*	*^	*	*	*
8r	.	8r	.	8r	.	.	.	4.d\	-can-	.	.	8r	.	.	8r	.	.	8ryy	.	8r	.	2.dd\)yy	<	1dd]yy	2cc\yy	<	2A\yy	<	[<2dd/yy	2f#X\yy	.	2ryy	1reyy	.	2ryy	.
!	!	!	!	!	!	!	!	!	!	!	!	!	!	!	!	!	!	!	!	!	!	!	!	!	!	!	!	!	!	!	!LO:HP:a	!	!	!	!	!
8A\L	.	8AA/L	.	8A\	o-	.	.	.	.	.	.	8c\	o-	.	8f#X\	o-	.	8d\L|yy	.	8c/L|yy	.	.	.	.	.	.	.	.	.	.	<	.	.	.	.	.
8d\J	.	8D/J	.	8A\	-/ra	.	.	.	.	.	.	8c\	-/ra	.	8f#\	-ra	.	8d\|yy	.	8c/|yy	.	.	.	.	.	.	.	.	.	.	.	.	.	.	.	.
8r	.	8r	.	8A\	pro	.	.	8d\	-da,	.	.	8c\	pro	.	8f#\	pro	.	8d\J|yy	.	8c/J|yy	.	.	.	.	.	.	.	.	.	.	.	.	.	.	.	.
8r	.	8r	.	4G\	no-	.	.	4d\	vir-	.	.	4B-\	no-	.	8g\	no-	.	(8g^<\Lyy	.	(8B-^>/Lyy	.	.	.	.	2b-\yy	.	2G\)yy	.	8dd/])yy	2g\)yy	.	4ryy	.	.	4ryy	.
8G\L	.	8GG/L	.	.	.	.	.	.	.	.	.	.	.	.	8g\	-bis,	.	8d\)yy	.	8d/)yy	.	.	.	.	.	.	.	[	8ryy	.	.	.	.	.	.	.
!	!	!	!	!	!	!	!	!	!	!	!	!	!	!	!	!	!LO:DY:b	!	!	!	!	!	!	!	!	!	!	!	!	!	!	!	!	!LO:DY:rj	!	!LO:DY:rj:t=f.
8B-\J	.	8BB-/J	.	4G\	bis/	.	.	4d\	-go	.	.	4B-\	bis/	.	[4dd^\	o-	f	8d\yy	.	8B-/yy	.	4dd\yy	[	.	.	[	.	.	4dd/yy	.	.	[<4dd^</yy	.	f	[4ddd^\yy	f
8r	.	8r	.	.	.	.	.	.	.	.	.	.	.	.	.	.	.	8d\Jyy	.	8B-/Jyy	.	.	.	.	.	.	.	.	.	.	[	.	.	.	.	.
*	*	*	*	*	*	*	*	*	*	*	*	*	*	*	*	*	*	*	*	*	*	*	*	*	*	*	*	*	*v	*v	*	*	*	*	*	*
*	*	*	*	*	*	*	*	*	*	*	*	*	*	*	*	*	*	*	*	*	*	*	*	*v	*v	*	*	*	*	*	*v	*v	*	*	*
*	*	*	*	*	*	*	*	*	*	*	*	*	*	*	*	*	*	*Xrep	*	*Xrep	*	*	*	*	*	*	*	*	*	*	*	*	*
=41	=41	=41	=41	=41	=41	=41	=41	=41	=41	=41	=41	=41	=41	=41	=41	=41	=41	=41	=41	=41	=41	=41	=41	=41	=41	=41	=41	=41	=41	=41	=41	=41	=41
*	*	*	*	*	*	*	*	*	*	*	*	*	*	*	*	*	*	*	*	*	*	*	*	*^	*	*	*	*^	*	*	*	*	*
*	*	*	*	*	*	*	*	*	*	*	*	*	*	*	*	*	*	*tremolo	*	*	*	*	*	*	*	*	*	*	*	*	*	*	*	*	*
!LO:TX:i:t=Col Vcello	!	!	!	!	!	!	!LO:DY:b	!	!	!	!	!	!	!	!	!	!	!	!	!	!LO:DY:rj	!	!LO:DY:t=f.	!LO:TX:t=P:problem:cor II: 4cc 4b- 4a 4b- poprawione na 1a	!	!	!	!LO:DY:rj	!	!	!LO:DY:rj	!	!	!LO:TX:a:t=P:problem:koniec ligatury na dole	!
8ryy	.	8r	.	1E-	o-	.	f	4d\	po-	.	.	1g	o-	.	(4dd\]	.	.	8B-/Lyy	.	8ryy	f	(2.gg\yy	f	2ee-/yy	1gyy	.	(1E-yy	f > ]]	(2.gg/yy	2.g\yy	f	(4dd\]yy	f	(4ddd\]yy	f
!	!	!	!LO:DY:b	!	!	!	!	!	!	!	!	!	!	!	!	!	!	!	!	!	!	!	!	!	!	!	!	!	!	!	!	!	!	!	!
8E-\Lyy	f	8E-\L	f	.	.	.	.	.	.	.	.	.	.	.	.	.	.	8B-/yy	.	8g/Lyyyy	.	.	.	.	.	.	.	.	.	.	.	.	.	.	.
!	!	!	!	!	!	!	!LO:HP:b	!	!	!	!	!	!	!	!	!	!	!	!	!	!	!	!	!	!	!	!	!	!	!	!	!	!	!	!
8G\Jyy	.	8G\J	.	.	.	.	>	4c\	-tens	.	.	.	.	.	4cc\)	.	.	8B-/yy	.	8g/yy	.	.	.	.	.	.	.	.	.	.	.	4cc\yy	.	4ccc\yy	.
8ryy	.	8r	.	.	.	.	.	.	.	.	.	.	.	.	.	.	.	8B-/Jyy	.	8g/Jyyyy	.	.	.	.	.	.	.	.	.	.	.	.	.	.	.
8ryy	.	8r	.	.	.	.	.	4B-\	vir-	.	.	.	.	.	4b-\	-ra	.	8G/Lyyyy	.	(8b-^/Lyy	.	.	.	4b-/yy	.	.	.	.	.	.	.	4b-\yy	.	4bb-\yy	.
8E-\Lyy	.	8E-\L	.	.	.	.	.	.	.	.	.	.	.	.	.	.	.	8B-/yy	.	8g/)yy	.	.	.	.	.	.	.	.	.	.	.	.	.	.	.
8G\Jyy	.	8G\J	.	.	.	.	.	8c\	-go	.	.	.	.	.	4cc\	pro	.	8B-/yy	.	8g/yy	.	4cc\)yy	.	4cc/yy	.	.	.	.	4g/yy	4c\yy	.	4cc\yy	.	4ccc\)yy	.
8ryy	.	8r	.	.	.	.	]	8c\	fi-	.	.	.	.	.	.	.	.	8B-/Jyy	.	8g/Jyy	.	.	.	.	.	.	.	.	.	.	.	.	.	.	.
=42	=42	=42	=42	=42	=42	=42	=42	=42	=42	=42	=42	=42	=42	=42	=42	=42	=42	=42	=42	=42	=42	=42	=42	=42	=42	=42	=42	=42	=42	=42	=42	=42	=42	=42	=42
*	*	*	*	*	*	*	*	*	*	*	*	*	*	*	*	*	*	*	*	*tremolo	*	*	*	*	*	*	*	*	*	*	*	*	*	*	*
!	!	!	!	!	!	!	!	!	!	!	!	!	!	!	!	!	!	!	!	!	!	!	!	!LO:TX:t=P:problem:cor I:1cc poprawione na 1ee	!	!	!	!	!	!	!	!	!	!	!
!	!	!	!	!	!	!	!	!	!	!	!	!	!	!	!	!	!	!	!	!	!	!	!	!LO:TX:t=P:problem:cor II:2cc poprawione na 4e	!	!LO:HP:a	!	!	!	!	!	!	!	!	!
8ryy	.	8r	.	8D\	-ra	.	.	2d\	-de-	.	.	8d\	-ra,	.	2.dd\	no-	.	8d\Lyy	.	8f#X/Lyy	.	1ddyy	>	[1ddyy	4d\yy	>	2D\)yy	.	2f#X/yy	2d\yy	.	2dd\)yy	.	(1dddyy	.
8D\Lyy	.	8D\L	.	8D\	o-	.	.	.	.	.	.	8d\	o-	.	.	.	>	8d\yy	.	8f#X/yy	>	.	.	.	.	.	.	.	.	.	>	.	.	.	.
8A\Jyy	.	8A\J	.	8D\	-ra	.	.	.	.	.	.	8d\	-ra	.	.	.	.	8d\yy	.	8f#X/yy	.	.	.	.	4rdyy	.	.	.	.	.	.	.	.	.	.
8ryy	.	8r	.	8D\	pro	.	.	.	.	.	.	8d\	pro	.	.	.	.	8d\Jyy	.	8f#X/Jyy	.	.	.	.	.	.	.	.	.	.	.	.	.	.	.
!	!	!	!	!	!	!	!	!LO:TX:t=P:problem:4D poprawione na 4d	!	!	!	!	!	!	!	!	!	!	!	!	!	!	!	!	!	!	!	!	!	!	!	!	!	!	!
8ryy	.	8r	.	4D\	no-	.	.	4d\	-lis.	.	.	4d\	no-	.	.	.	.	(8f#X\Lyy	.	(8dd/Lyy	.	.	.	.	2reyy	.	2r	.	2a/)yy	2f#X\yy	.	2ryy	.	.	.
8AA/Lyy	.	8AA/L	.	.	.	.	.	.	.	.	.	.	.	.	.	.	.	8d\)yy	.	8f#/)yy	.	.	.	.	.	.	.	.	.	.	.	.	.	.	.
8D/Jyy	.	8D/J	.	8D\	-bis	.	.	4r	.	.	.	8d\	-bis	.	4dd\	-bis!	]	8d\yy	.	8f#/yy	.	.	.	.	.	.	.	.	.	.	.	.	.	.	.
8ryy	.	8r	.	8r	.	.	.	.	.	.	.	8r	.	.	.	.	.	8d\Jyy	.	8f#/Jyy	]	.	]	.	.	]	.	.	.	.	]	.	.	.	.
*	*	*	*	*	*	*	*	*	*	*	*	*	*	*	*	*	*	*	*	*	*	*	*	*	*	*	*	*	*v	*v	*	*	*	*	*
=43	=43	=43	=43	=43	=43	=43	=43	=43	=43	=43	=43	=43	=43	=43	=43	=43	=43	=43	=43	=43	=43	=43	=43	=43	=43	=43	=43	=43	=43	=43	=43	=43	=43	=43
!	!	!	!	!	!	!	!	!	!	!	!	!	!	!	!	!	!LO:DY:a	!	!	!	!	!	!	!LO:TX:t=P:problem:cor I:1cc poprawione na 1ee	!	!LO:DY:a	!	!	!	!	!	!	!	!
8ryy	.	8r	.	1r	.	.	.	1r	.	.	.	1r	.	.	4.dd\	Spe-	ppp	8ryy	.	8ryy	.	(4.dd\yy	pp	1dd_yy	1reyy	ppp	1ryy	.	[1a-Xyy [>1fyy	ppp	1ryy	.	4dd\)yy	.
8C\Lyy	.	8C\L	.	.	.	.	.	.	.	.	.	.	.	.	.	.	.	8A-X/Lyy	.	8fn/Lyy	pp	.	.	.	.	.	.	.	.	.	.	.	.	.
!	!	!	!	!	!	!	!	!	!	!	!	!	!	!	!LO:TX:a:i:t=Solo.	!	!	!	!	!	!	!	!	!	!	!	!	!	!	!	!	!	!	!
8D\Jyy	.	8D\J	.	.	.	.	.	.	.	.	.	.	.	.	.	.	.	8A-X/yy	.	8fn/yyyy	.	.	.	.	.	.	.	.	.	.	.	.	4ryy	.
8ryy	.	8r	.	.	.	.	.	.	.	.	.	.	.	.	8ee-\	-cu-	.	8A-X/Jyy	.	8fn/Jyy	.	8ee-\yy	.	.	.	.	.	.	.	.	.	.	.	.
!	!	!	!	!	!	!	!LO:DY:b	!	!	!	!LO:DY:b	!	!	!LO:DY:b	!	!	!	!	!	!	!	!	!	!	!	!	!	!	!	!	!	!	!	!
8ryy	.	8r	.	.	.	.	ppp	.	.	.	ppp	.	.	ppp	4dd\	-lum	.	(8F/Lyy	.	(8a-X/Lyy	.	4dd\yy	.	.	.	.	.	.	.	.	.	.	2ryy	.
8C\Lyy	.	8C\L	.	.	.	.	.	.	.	.	.	.	.	.	.	.	.	8A-/)yy	.	8f/)yy	.	.	.	.	.	.	.	.	.	.	.	.	.	.
8F\Jyy	.	8F\J	.	.	.	.	.	.	.	.	.	.	.	.	4cc#X\	jus-	.	8A-/yy	.	8f/yy	.	4cc#X\yy	.	.	.	.	.	.	.	.	.	.	.	.
8ryy	.	8r	.	.	.	.	.	.	.	.	.	.	.	.	.	.	.	8A-/Jyy	.	8f/Jyy	.	.	.	.	.	.	.	.	.	.	.	.	.	.
*	*	*	*	*	*	*	*	*	*	*	*	*	*	*	*	*	*	*	*	*	*	*	*	*v	*v	*	*	*	*	*	*	*	*	*
=44	=44	=44	=44	=44	=44	=44	=44	=44	=44	=44	=44	=44	=44	=44	=44	=44	=44	=44	=44	=44	=44	=44	=44	=44	=44	=44	=44	=44	=44	=44	=44	=44	=44
*rep	*	*rep	*	*	*	*	*	*	*	*	*	*	*	*	*	*	*	*rep	*	*rep	*	*	*	*	*	*	*	*rep	*	*	*	*	*
*	*	*	*	*	*	*	*	*	*	*	*	*	*	*	*	*	*	*	*	*	*	*	*	*^	*	*	*	*	*	*	*	*	*
!	!	!	!	!	!	!	!	!	!	!	!	!	!	!	!	!	!	!	!	!	!	!	!	!LO:TX:t=P:problem:cor I:1cc poprawione na 1ee	!	!	!	!	!	!	!	!	!	!
8ryy	.	8r	.	8r	.	.	.	8r	.	.	.	8r	.	.	4.dd\	-ti-	.	8ryy	.	8ryy	.	([<1dd)yy	.	1dd_yy	1reyy	.	1ryy	.	1a-_yy 1f_>yy	.	1ryy	.	1ryy	.
!	!	!	!	!	!	!	!	!LO:TX:a:i:t=tutti.	!	!	!	!	!	!	!	!	!	!	!	!	!	!	!	!	!	!	!	!	!	!	!	!	!	!
8C/Lyy	.	8C/L	.	8C/	o-	.	.	8A-X\	o-	.	.	8f\	o-	.	.	.	.	8A-X/Lyy	.	8f/Lyy	.	.	.	.	.	.	.	.	.	.	.	.	.	.
8D/Jyy	.	8D/J	.	8C/	-/ra	.	.	8A-\	-/ra	.	.	8f\	-/ra	.	.	.	.	8A-X/yy	.	8f/yy	.	.	.	.	.	.	.	.	.	.	.	.	.	.
8ryy	.	8r	.	8C/	pro	.	.	8A-\	pro	.	.	8f\	pro	.	8dd\	-ti-	.	8A-X/Jyy	.	8f/Jyy	.	.	.	.	.	.	.	.	.	.	.	.	.	.
8ryy	.	8r	.	4F\	no-	.	.	4A-\	no-	.	.	4f\	no-	.	4dd\	-ae	.	(8F/Lyy	.	(8a-X/Lyy	.	.	.	.	.	.	.	.	.	.	.	.	.	.
8C\Lyy	.	8C\L	.	.	.	.	.	.	.	.	.	.	.	.	.	.	.	8A-/)yy	.	8f/)yy	.	.	.	.	.	.	.	.	.	.	.	.	.	.
8F\Jyy	.	8F\J	.	8C/	-bis/	.	.	8A-\	-bis/	.	.	8f\	-bis/	.	4r	.	.	8A-/yy	.	8f/yy	.	.	.	.	.	.	.	.	.	.	.	.	.	.
8ryy	.	8r	.	8r	.	.	.	8r	.	.	.	8r	.	.	.	.	.	8A-/Jyy	.	8f/Jyy	.	.	.	.	.	.	.	.	.	.	.	.	.	.
*Xrep	*	*Xrep	*	*	*	*	*	*	*	*	*	*	*	*	*	*	*	*Xrep	*	*Xrep	*	*	*	*	*	*	*	*	*Xrep	*	*	*	*	*
*	*	*	*	*	*	*	*	*	*	*	*	*	*	*	*	*	*	*	*	*	*	*	*	*v	*v	*	*	*	*	*	*	*	*	*
!!LO:LB:g=original
=45	=45	=45	=45	=45	=45	=45	=45	=45	=45	=45	=45	=45	=45	=45	=45	=45	=45	=45	=45	=45	=45	=45	=45	=45	=45	=45	=45	=45	=45	=45	=45	=45	=45
*rep	*	*rep	*	*	*	*	*	*	*	*	*	*	*	*	*	*	*	*rep	*	*rep	*	*	*	*	*	*	*	*	*	*	*	*	*
*	*	*	*	*	*	*	*	*	*	*	*	*	*	*	*	*	*	*	*	*	*	*	*	*^	*	*	*	*	*	*	*	*	*
!	!	!	!	!	!	!	!	!	!	!	!	!	!	!	!	!	!	!	!	!	!	!	!	!LO:TX:t=P:problem:cor I:1cc poprawione na 1ee	!	!	!	!	!	!	!	!	!	!
8ryy	.	8r	.	1r	.	.	.	1r	.	.	.	1r	.	.	(4.dd\	se-	.	8ryy	.	8ryy	.	4.dd\]yy	.	1dd_yy	1reyy	.	1ryy	.	(>1a-X]yy 1f]yy	.	1ryy	.	1ryy	.
8C/Lyy	.	8C/L	.	.	.	.	.	.	.	.	.	.	.	.	.	.	.	8A-X/Lyy	.	8f/Lyy	.	.	.	.	.	.	.	.	.	.	.	.	.	.
8D/Jyy	.	8D/J	.	.	.	.	.	.	.	.	.	.	.	.	.	.	.	8A-X/yy	.	8f/yy	.	.	.	.	.	.	.	.	.	.	.	.	.	.
8ryy	.	8r	.	.	.	.	.	.	.	.	.	.	.	.	8ee-\)	.	.	8A-X/Jyy	.	8f/Jyy	.	16ff\LLyy	.	.	.	.	.	.	.	.	.	.	.	.
.	.	.	.	.	.	.	.	.	.	.	.	.	.	.	.	.	.	.	.	.	.	16ee-\JJyy	.	.	.	.	.	.	.	.	.	.	.	.
8ryy	.	8r	.	.	.	.	.	.	.	.	.	.	.	.	4dd\	-des	.	(8F/Lyy	.	(8a-X/Lyy	.	4dd\yy	.	.	.	.	.	.	.	.	.	.	.	.
8C\Lyy	.	8C\L	.	.	.	.	.	.	.	.	.	.	.	.	.	.	.	8A-/)yy	.	8f/)yy	.	.	.	.	.	.	.	.	.	.	.	.	.	.
8F\Jyy	.	8F\J	.	.	.	.	.	.	.	.	.	.	.	.	4cc#X\	sa-	.	8A-/yy	.	8f/yy	.	4cc#X\yy	.	.	.	.	.	.	.	.	.	.	.	.
8r	.	8r	.	.	.	.	.	.	.	.	.	.	.	.	.	.	.	8A-/Jyy	.	8f/Jyy	.	.	.	.	.	.	.	.	.	.	.	.	.	.
*	*	*	*	*	*	*	*	*	*	*	*	*	*	*	*	*	*	*	*	*	*	*	*	*v	*v	*	*	*	*	*	*	*	*	*
*Xrep	*	*Xrep	*	*	*	*	*	*	*	*	*	*	*	*	*	*	*	*Xrep	*	*Xrep	*	*	*	*	*	*	*	*	*	*	*	*	*
=46	=46	=46	=46	=46	=46	=46	=46	=46	=46	=46	=46	=46	=46	=46	=46	=46	=46	=46	=46	=46	=46	=46	=46	=46	=46	=46	=46	=46	=46	=46	=46	=46	=46
*	*	*	*	*	*	*	*	*	*	*	*	*	*	*	*	*	*	*	*	*	*	*	*	*	*	*	*	*^	*	*	*	*	*
!	!	!	!	!	!	!	!	!	!	!	!	!	!	!	!	!	!	!	!	!	!	!LO:TX:a:t=P:problem:brak zakończenia łuku	!	!LO:TX:t=P:problem:1cc poprawione na 1ee	!	!	!	!	!	!	!	!	!	!
8ryy	.	8r	.	8r	.	.	.	8r	.	.	.	8r	.	.	4.dd\	-pien-	.	8An/Lyy	.	8f#X/Lyy	.	[1dd)yy	.	1dd]yy	.	1ryy	.	2a/yy	2f#X\yy	<	2ryy	.	2ryy	.
!	!	!	!	!	!	!	!	!LO:TX:t=P:problem:8d poprawione na 8D	!	!	!	!	!	!	!	!	!	!	!	!	!	!	!	!	!	!	!	!	!	!	!	!	!	!
8C\Lyy	.	8C\L	.	8D\	o-	.	.	8D\	o-	.	.	8d\	o-	.	.	.	.	8An/yy	.	8f#X/yy	.	.	.	.	.	.	.	.	.	.	.	.	.	.
!	!	!	!	!	!	!	!	!LO:TX:t=P:problem:8d poprawione na 8D	!	!	!	!	!	!	!	!	!	!	!	!	!	!	!	!	!	!	!	!	!	!	!	!	!	!
8D\Jyy	.	8D\J	.	8D\	-/ra	.	.	8D\	-/ra	.	.	8d\	-ra	.	.	.	.	8An/yy	.	8f#X/yy	.	.	.	.	.	.	.	.	.	.	.	.	.	.
!	!	!	!	!	!	!	!	!LO:TX:t=P:problem:8d poprawione na 8D	!	!	!	!	!	!	!	!	!	!	!	!	!	!	!	!	!	!	!	!	!	!	!	!	!	!
8ryy	.	8r	.	8D\	pro	.	.	8D\	pro	.	.	8d\	pro	.	8dd\	-ti-	.	8An/Jyy	.	8f#X/Jyy	.	.	.	.	.	.	.	.	.	.	.	.	.	.
*	*	*	*	*	*	*	*	*	*	*	*	*	*	*	*	*	*	*Xtremolo	*	*	*	*	*	*	*	*	*	*	*	*	*	*	*	*
!	!	!	!	!	!	!	!	!LO:TX:t=P:problem:4d poprawione na 4D	!	!	!	!	!	!	!	!	!	!	!	!	!	!	!	!	!	!	!	!	!	!	!	!	!	!
8ryy	.	8r	.	4D\	no-	.	.	4D\	no-	.	.	4d\	no-	.	8dd\	-ae	.	(8G^/Lyy	.	(8g^/Lyy	.	.	.	.	.	.	.	2b-/)yy	2g\yy	.	4ryy	.	4ryy	.
!	!	!	!	!	!	!	!	!	!	!	!	!	!	!	!LO:TX:a:t=tutti.	!	!	!	!	!	!	!	!	!	!	!	!	!	!	!	!	!	!	!
8BB-/Lyy	.	8BB-/L	.	.	.	.	.	.	.	.	.	.	.	.	8r	.	.	8d/)yy	.	8d/)yy	.	.	.	.	.	.	.	.	.	[	.	.	.	.
8D/Jyy	.	8D/J	.	8D\	-bis/	.	.	8d\	-bis/	.	.	8d\	-bis	.	([<4dd\	cau-	.	8d/|yy	.	8b-/yy	.	.	.	.	.	.	.	.	.	.	[4dd\yy	p	[4ddd\yy	p
8ryy	.	8r	.	8r	.	.	.	8r	.	.	.	8r	.	.	.	.	.	8B-/J|yy	.	8g/Jyy	.	.	.	.	.	.	.	.	.	.	.	.	.	.
=47	=47	=47	=47	=47	=47	=47	=47	=47	=47	=47	=47	=47	=47	=47	=47	=47	=47	=47	=47	=47	=47	=47	=47	=47	=47	=47	=47	=47	=47	=47	=47	=47	=47	=47
*	*	*	*	*	*	*	*	*	*	*	*	*	*	*	*	*	*	*	*	*	*	*	*	*^	*	*	*	*	*	*	*	*	*	*
*	*	*	*	*	*	*	*	*	*	*	*	*	*	*	*	*	*	*tremolo	*	*	*	*	*	*	*	*	*	*	*	*	*	*	*	*	*
!	!	!	!	!	!	!	!	!	!	!	!	!	!	!LO:DY:a	!	!	!	!	!	!	!	!	!	!	!	!	!	!	!	!	!	!	!	!	!
8ryy	.	8r	.	(4A\	o-	.	.	(4c\	o-	.	.	(4f#X\	o-	<	4.dd\]	.	.	8c/Lyy	<	8f#Xyy 8d/Lyy	<	(4.dd\]yy	<	(2dd/yy	2d\yy	<	(4A\yy	<	(4cc/yy	4f#X\yy	.	(4.dd\]yy	.	(4.ddd\]yy	.
8D/Lyy	.	8D/L	.	.	.	.	.	.	.	.	.	.	.	.	.	.	<	8c/Jyy	.	8f#Xyy 8d/Jyy	.	.	.	.	.	.	.	.	.	.	<	.	<	.	<
8GG/Jyy	.	8GG/J	.	4G\)	.	.	.	4B-\)	.	.	.	4g\)	.	.	.	.	.	8B-/Lyy	.	8gyy 8d/Lyy	.	.	.	.	.	.	4G\yy	.	4b-/yy	4g\yy	.	.	.	.	.
8ryy	.	8r	.	.	.	.	.	.	.	.	.	.	.	.	8ee-\	.	.	8B-/Jyy	.	8gyy 8d/Jyy	.	8ee-\yy	.	.	.	.	.	.	.	.	.	8ee-\yy	.	8eee-\yy	.
!	!	!	!	!	!	!	!	!	!	!	!	!	!	!	!	!	!	!	!	!LO:SIC:v:n=2:s=4fn	!	!	!	!	!	!	!	!	!	!	!	!	!	!	!
8ryy	.	8r	.	4.Fn\	-ra	.	.	4.A\	-ra	.	.	4fn\	-ra	.	4ff\)	.	.	8A/Lyy	.	8ccyy 8f#/Lyy	.	4ff\yy	.	2cc/yy	2f\yy	.	2A\yy	.	2cc/yy	4f\yy	.	4ff\yy	.	4fff\yy	.
8C\Lyy	.	8C\L	.	.	.	.	.	.	.	.	.	.	.	.	.	.	.	8A/Jyy	.	8ccyy 8f#/Jyy	.	.	[	.	.	.	.	.	.	.	.	.	.	.	.
8F\Jyy	.	8F\J	.	.	.	.	.	.	.	.	.	4e-\	pro	[	4cc\	-sa	[[	8fyy 8A/Lyy	[	8e-/Lyy	[	4cc\yy	.	.	.	[	.	[	.	4e-\yy	[	4cc\yy	[	4ccc\yy	.
8ryy	.	8r	.	8F\	pro	.	.	8c\	pro	.	.	.	.	.	.	.	.	8fyy 8A/Jyy	.	8e-/Jyy	.	.	.	.	.	.	.	.	.	.	.	.	.	.	.
=48	=48	=48	=48	=48	=48	=48	=48	=48	=48	=48	=48	=48	=48	=48	=48	=48	=48	=48	=48	=48	=48	=48	=48	=48	=48	=48	=48	=48	=48	=48	=48	=48	=48	=48	=48
!	!	!	!	!	!	!	!	!	!	!	!	!	!	!	!	!	!LO:DY:a	!	!	!	!	!	!	!	!	!	!	!	!	!	!	!	!	!	!
8ryy	.	8r	.	2B-\	no-	.	.	[1B-	no-	.	.	(4d\	no-	.	(4dd\	no-	>	8fyy 8B-\Lyy	>	8d/Lyy	>	4dd\yy	.	(1b-)yy	4B-\yy	.	2B-\yy	>	4b-/yy	4d\yy	.	4dd\yy	.	4ddd\yy	[
8BB-/Lyy	.	8BB-/L	.	.	.	.	.	.	.	.	.	.	.	.	.	.	.	8fyy 8B-\yy	.	8d/yy	.	.	.	.	.	.	.	.	.	.	>	.	.	.	.
!	!	!	!	!	!	!	!	!	!	!	!	!	!	!LO:DY:a	!	!	!	!	!	!	!	!	!	!	!	!	!	!	!	!	!	!	!	!	!
8D/Jyy	.	8D/J	.	.	.	.	.	.	.	.	.	4f#X\)	.	>	4a\)	.	.	8fyy 8B-\yy	.	8d/yy	.	4a/yy	>	.	4rcyy	>	.	.	4a/yy	4f#X\yy	.	4a\yy	>	4aa\yy	>
8ryy	.	8r	.	.	.	.	.	.	.	.	.	.	.	.	.	.	.	8fyy 8B-\Jyy	.	8d/Jyy	.	.	.	.	.	.	.	.	.	.	.	.	.	.	.
8ryy	.	8r	.	4.E-\	-bis	.	.	.	.	.	.	4.g\	-bis,	.	4.b-\	-strae	.	8gyy 8B-\Lyy	.	8e-/Lyy	.	4.b-/yy	.	.	(2B-^>\yy	.	(2E-^\)yy	.	4.b-/yy	4.g^\yy	.	4.b-\yy	.	4.bb-\yy	.
8E-\Lyy	.	8E-\L	.	.	.	.	.	.	.	.	.	.	.	.	.	.	.	8gyy 8B-\yy	.	8e-/yy	]	.	.	.	.	.	.	.	.	.	.	.	.	.	.
8G\Jyy	.	8G\J	.	.	.	.	.	.	.	.	.	.	.	.	.	.	.	8gyy 8B-\yy	]	8e-/yy	.	.	.	.	.	.	.	]	.	.	.	.	.	.	.
8ryy	.	8r	.	8E-\	pro	.	.	.	.	.	.	8e-X\	pro	]]	8g\	le-	]	8gyy 8B-\Jyy	.	8e-/Jyy	.	8g/)yy	]]	.	.	.	.	.	8g/)yy	8e-\yy	.	8g\yy	]	8gg\yy	]]
*	*	*	*	*	*	*	*	*	*	*	*	*	*	*	*	*	*	*Xtremolo	*	*	*	*	*	*	*	*	*	*	*	*	*	*	*	*	*
=49	=49	=49	=49	=49	=49	=49	=49	=49	=49	=49	=49	=49	=49	=49	=49	=49	=49	=49	=49	=49	=49	=49	=49	=49	=49	=49	=49	=49	=49	=49	=49	=49	=49	=49	=49
!	!	!	!	!	!	!	!	!	!	!	!	!	!	!	!	!	!	!	!	!	!	!	!	!	!LO:TX:a:t=P:problem:brak zakończenia łuków	!	!LO:TX:a:t=P:problem:brak zakończenia łuku	!	!	!	!	!	!	!	!
8ryy	.	8r	.	1F	no-	.	.	(2B-\]	.	.	.	(2d\	-no-	.	(2f\	-ti-	.	8B-\L	.	8d/L	.	(2f/	.	4f/	4f\))	]	4F\)	.	4f/	4d\	]	4f/)	.	4ff\)	.
8F\Lyy	.	8F\L	.	.	.	.	.	.	.	.	.	.	.	.	.	.	.	8d\	.	8f/	.	.	.	.	.	.	.	.	.	.	.	.	.	.	.
8B-\Jyy	.	8B-\J	.	.	.	.	.	.	.	.	.	.	.	.	.	.	.	8d\	.	8b-/	.	.	.	4r	4ryy	.	4r	.	4r	4ryy	.	4r	pp	4r	pp
8ryy	.	8r	.	.	.	.	.	.	.	.	.	.	.	.	.	.	.	8f\J	.	8b-/J	.	.	pp	.	.	pp	.	.	.	.	.	.	.	.	.
!	!	!	!	!	!	!	!	!	!	!	!	!	!	!	!	!	!LO:DY:a	!	!	!	!	!	!	!	!	!	!	!LO:DY:rj	!	!	!LO:DY:rj	!	!	!	!
8ryy	.	8r	.	.	.	.	.	4..A\	.	.	.	(4..e-\)	.	.	4..cc\)	.	pp	8f\L	.	8b-/L	.	4..cc\	.	(>2cc (2F/	2ryy	.	2F\	pp	4..a/	2e-\	pp	(4..cc\	.	(4..ee-\	.
!LO:TX:t=P:problem:mixed beam	!	!LO:TX:t=P:problem:mixed beam	!	!	!	!	!	!	!	!	!	!	!	!	!	!	!	!	!	!	!	!	!	!	!	!	!	!	!	!	!	!	!	!	!
8FF/Lyy	.	8FF/L	.	.	.	.	.	.	.	.	.	.	.	.	.	.	.	8f\	.	8b-/J	.	.	.	.	.	.	.	.	.	.	.	.	.	.	.
8F\Jyy	.	8F\J	.	.	.	.	.	.	.	.	.	.	.	.	.	.	.	8e-\	.	8a/L	.	.	.	.	.	.	.	.	.	.	.	.	.	.	.
8ryy	.	8r	.	.	.	.	.	.	.	.	.	.	.	.	.	.	.	8e-\J	.	8a/J	.	.	.	.	.	.	.	.	.	.	.	.	.	.	.
.	.	.	.	.	.	.	.	16B-\)	.	.	.	16d\)	.	.	16b-\	-ti	.	.	.	.	.	16b-\)	.	.	.	.	.	.	16b-/	.	.	16b-\)	.	16dd\)	.
!!LO:LB:g=original
=50	=50	=50	=50	=50	=50	=50	=50	=50	=50	=50	=50	=50	=50	=50	=50	=50	=50	=50	=50	=50	=50	=50	=50	=50	=50	=50	=50	=50	=50	=50	=50	=50	=50	=50	=50
!	!	!	!	!	!	!	!	!	!	!	!	!	!	!	!	!	!	!	!	!	!	!	!	!	!LO:TX:a:t=P:problem:brak zakończenia łuku	!	!	!	!	!	!	!	!	!	!
8r	.	8r	.	8B-\	-bis.	.	.	8B-\	-[bis]	.	.	8d\	-bis	.	4b-\	ae.	.	(4d/	.	8b-/	.	8b-\	.	8b-/)	[1B-)	.	(4B-\	.	(1b-	1d	.	4b-\	.	4dd\	.
8F\L	.	8FF/L	.	8r	.	.	.	8r	.	.	.	8r	.	.	.	.	.	.	.	8B-/L	.	8d/L	.	8r	.	.	.	.	.	.	.	.	.	.	.
8B-\J	.	8BB-/J	.	4BB-/	o-	.	.	4B-\	o-	.	.	4B-/	o-	.	4r	.	.	4A/	.	8B-/	.	8d/	.	4r	.	.	4A\	.	.	.	.	4r	.	4r	.
8r	.	8r	.	.	.	.	.	.	.	.	.	.	.	.	.	.	.	.	.	8B-/J	.	8d/J	.	.	.	.	.	.	.	.	.	.	.	.	.
8r	.	8r	.	4BB-/	-ra	.	.	4B-\	-ra	.	.	4B-/	-ra	.	2r	.	.	4F/	.	(8d^/L	.	(8b-^/L	.	2r	.	.	4F\	.	.	.	.	2r	.	2r	.
8F\L	.	8FF/L	.	.	.	.	.	.	.	.	.	.	.	.	.	.	.	.	.	8B-/)	.	8d/)	.	.	.	.	.	.	.	.	.	.	.	.	.
8B-\J	.	8BB-/J	.	4BB-/	pro	.	.	4B-\	pro	.	.	4B-/	pro	.	.	.	.	4G/)	.	8B-/	.	8d/	.	.	.	.	4G\	.	.	.	.	.	.	.	.
8r	.	8r	.	.	.	.	.	.	.	.	.	.	.	.	.	.	.	.	.	8B-/J	.	8d/J	.	.	.	.	.	.	.	.	.	.	.	.	.
=51	=51	=51	=51	=51	=51	=51	=51	=51	=51	=51	=51	=51	=51	=51	=51	=51	=51	=51	=51	=51	=51	=51	=51	=51	=51	=51	=51	=51	=51	=51	=51	=51	=51	=51	=51
*	*	*	*	*	*	*	*	*	*	*	*	*	*	*	*	*	*	*	*	*	*	*rep	*	*	*	*	*	*	*	*	*	*	*	*	*
!	!	!	!	!	!	!	!	!	!	!	!	!	!	!	!	!	!	!	!	!LO:TX:t=P:problem:8r i 4.B- poprawione na 2B-	!	!	!	!	!	!	!	!	!LO:TX:b:t=P:problem:cl II: 2f poprawione na 2e	!	!	!	!	!	!
8r	.	8r	.	2.BB-/	no-	.	.	1A-X	no-	.	.	1f	no-	.	4.b-\	vas	.	(4A-X/	.	8B-/L	.	8b-/	.	1ryy	1B-_	.	4A-X\	.	1ff	2d\	.	1r	.	1r	.
8F\L	.	8FF/L	.	.	.	.	.	.	.	.	.	.	.	.	.	.	.	.	.	8B-/	.	8d/L	.	.	.	.	.	.	.	.	.	.	.	.	.
8B-\J	.	8BB-/J	.	.	.	.	.	.	.	.	.	.	.	.	.	.	.	4F/	.	8B-/	.	8d/	.	.	.	.	4F\	.	.	.	.	.	.	.	.
8r	.	8r	.	.	.	.	.	.	.	.	.	.	.	.	8cc\	spi-	.	.	.	8B-/J	.	8d/J	.	.	.	.	.	.	.	.	.	.	.	.	.
!	!	!	!	!	!	!	!	!	!	!	!	!	!	!	!	!	!	!	!	!	!	!	!	!	!	!	!	!	!LO:TX:b:t=P:problem:cl II: 2a poprawione na 2g	!	!	!	!	!	!
8r	.	8r	.	.	.	.	.	.	.	.	.	.	.	.	4b-\	-ri-	.	4C/	.	(8f^/L	.	(8b-^/L	.	.	.	.	4C\	.	.	2f\	.	.	.	.	.
8BB-\L	.	8BB-\L	.	.	.	.	.	.	.	.	.	.	.	.	.	.	.	.	.	8B-/)	.	8d/)	.	.	.	.	.	.	.	.	.	.	.	.	.
8F\J	.	8F\J	.	4BB-/	-bis,	.	.	.	.	.	.	.	.	.	4b-\	-tu-	.	4D/)	.	8B-/	.	8d/	.	.	.	.	4D\)	.	.	.	.	.	.	.	.
8r	.	8r	.	.	.	.	.	.	.	.	.	.	.	.	.	.	.	.	.	8B-/J	.	8d/J	.	.	.	.	.	.	.	.	.	.	.	.	.
*	*	*	*	*	*	*	*	*	*	*	*	*	*	*	*	*	*	*	*	*	*	*	*	*v	*v	*	*	*	*v	*v	*	*	*	*	*
*	*	*	*	*	*	*	*	*	*	*	*	*	*	*	*	*	*	*	*	*	*	*Xrep	*	*	*	*	*	*	*	*	*	*	*
=52	=52	=52	=52	=52	=52	=52	=52	=52	=52	=52	=52	=52	=52	=52	=52	=52	=52	=52	=52	=52	=52	=52	=52	=52	=52	=52	=52	=52	=52	=52	=52	=52	=52
*	*	*	*	*	*	*	*	*	*	*	*	*	*	*	*	*	*	*	*	*	*	*	*	*^	*	*	*	*^	*	*	*	*	*
!	!	!	!	!LO:TX:t=P:problem:4.BB- i 8C poprawione na 2BB-	!	!	!	!	!	!	!	!	!	!	!LO:TX:t=P:problem:2b poprawione na 4.b	!	!	!	!	!	!	!	!	!	!	!	!	!	!	!	!	!	!	!	!
8r	.	8r	.	(4BB-/	vas	.	.	1G	-bis	.	.	1e-	-bis	.	4.b-\	-a-	.	(4E-/	.	8B-/	.	8e-/	.	1ryy	1B-_	.	(4E-\	.	1ee-	2.g\	.	1r	.	1r	.
8BB-\L	.	8BB-\L	.	.	.	.	.	.	.	.	.	.	.	.	.	.	.	.	.	8B-/L	.	8e-/L	.	.	.	.	.	.	.	.	.	.	.	.	.
8E-\J	.	8E-\J	.	4C/)	.	.	.	.	.	.	.	.	.	.	.	.	.	4G/	.	8B-/	.	8e-/	.	.	.	.	4G\	.	.	.	.	.	.	.	.
8r	.	8r	.	.	.	.	.	.	.	.	.	.	.	.	8cc\	-le,	.	.	.	8B-/J	.	8e-/J	.	.	.	.	.	.	.	.	.	.	.	.	.
*	*	*	*	*	*	*	*	*	*	*	*	*	*	*	*	*	*	*	*	*Xtremolo	*	*	*	*	*	*	*	*	*	*	*	*	*	*	*
!	!	!	!	!	!	!	!	!	!	!	!	!	!	!	!	!	!	!	!	!	!	!LO:TX:t=P:problem:8b poprawione na 8g	!	!	!	!	!	!	!	!	!	!	!	!	!
8r	.	8r	.	4BB-/	ho-	.	.	.	.	.	.	.	.	.	4b-\	vas	.	4c/	.	(8e-^/L	.	(8g^/L	.	.	.	.	4c\	.	.	.	.	.	.	.	.
8BB-\L	.	8BB-\L	.	.	.	.	.	.	.	.	.	.	.	.	.	.	.	.	.	8G/)	.	8e-/)	.	.	.	.	.	.	.	.	.	.	.	.	.
8E-\J	.	8E-\J	.	4BB-/	-no-	.	.	.	.	.	.	.	.	.	4b-\	in-	.	4B-/)	.	8G/	.	8e-/	.	.	.	.	4B-\)	.	.	4e-\	.	.	.	.	.
8r	.	8r	.	.	.	.	.	.	.	.	.	.	.	.	.	.	.	.	.	8G/J	.	8e-/J	.	.	.	.	.	.	.	.	.	.	.	.	.
=53	=53	=53	=53	=53	=53	=53	=53	=53	=53	=53	=53	=53	=53	=53	=53	=53	=53	=53	=53	=53	=53	=53	=53	=53	=53	=53	=53	=53	=53	=53	=53	=53	=53	=53	=53
!	!	!	!	!	!	!	!LO:DY:a	!LO:TX:t=P:problem:4F poprawione na 2F	!	!	!	!	!	!	!LO:TX:t=P:problem:4.b- poprawione na 4b-	!	!	!	!	!	!	!	!	!	!	!	!	!	!	!	!	!	!	!	!
8r	.	8r	.	(4.B-\	-ra-	.	p	2F/	o-	.	.	2d\	o-	.	4b-\	-si-	.	(4F/	<	(8B-/L	.	(8d/L	.	1b-	1B-]	.	(4F\	<	2dd/	2f\	.	2r	.	1r	.
8AA\L	.	8AA\L	.	.	.	.	.	.	.	.	.	.	.	.	.	.	.	.	.	8d/)	.	8f/)	<	.	.	<	.	.	.	.	.	.	.	.	.
!	!	!	!	!	!	!	!	!	!	!	!	!	!	!	!LO:TX:t=P:problem:8f poprawione na 4f	!	!LO:DY:a	!	!	!	!	!	!	!	!	!	!	!	!	!	!	!	!	!	!
8D\J	.	8D\J	.	.	.	.	.	.	.	.	.	.	.	.	4f/	-gne	<	4B-/	.	8d/|	.	8f/|	.	.	.	.	4B-\	.	.	.	.	.	.	.	.
8r	.	8r	.	8An\)	.	.	.	.	.	.	.	.	.	.	.	.	.	.	.	8d/J|	.	8b-/J|	.	.	.	.	.	.	.	.	.	.	.	.	.
!	!	!	!	!	!	!	!	!	!	!	!	!	!	!	!	!	!	!	!	!	!	!	!	!	!	!	!	!	!LO:TX:t=P:problem:cl II: 4cc 4ee poprawione na 2cc	!	!	!	!	!	!
8r	.	8r	.	4G\	-bi-	.	.	4B-\	-ra	.	.	4d\	-ra	.	4b-\	de-	.	4d\	.	(8d^/L	.	(8f/L	.	.	.	.	4d\	.	2ff/)	2b-\	.	4r	.	.	.
8F\L	.	8F\L	.	.	.	.	.	.	.	.	.	.	.	.	.	.	.	.	.	8f/)	.	8b-/)	.	.	.	.	.	.	.	.	.	.	.	.	.
8B-\J	.	8B-\J	.	4F\	-le	.	.	4B-\	pro	.	.	4f\	pro	.	4dd\	-vo-	[	4f\)	[	8d/|	.	8b-/|	.	.	.	[	4f\)	[	.	.	.	4dd\	.	.	.
8r	.	8r	.	.	.	.	.	.	.	.	.	.	.	.	.	.	.	.	.	8f/J|	.	8dd/J|	[	.	.	.	.	.	.	.	.	.	.	.	.
=54	=54	=54	=54	=54	=54	=54	=54	=54	=54	=54	=54	=54	=54	=54	=54	=54	=54	=54	=54	=54	=54	=54	=54	=54	=54	=54	=54	=54	=54	=54	=54	=54	=54	=54	=54
!	!	!LO:TX:a:t=P:problem: wykreślone nuty	!	!	!	!	!	!	!	!	!	!	!	!	!	!	!LO:DY:a	!	!	!	!	!	!	!	!	!	!	!	!	!	!	!	!	!	!
!	!	!LO:TX:t=col Cbs.	!	!LO:TX:t=P:problem:1En poprawione na 2G	!	!	!LO:DY:b	!	!	!	!	!LO:TX:t=P:problem:2g poprawione na 4f i 4en	!	!	!LO:TX:t=P:problem:2dd poprawione na 4dd	!	!	!	!	!	!	!	!LO:DY:t=f.	!	!	!	!LO:TX:t=P:problem:przed 4f usunięty ♮	!	!	!	!	!LO:TX:t=P:problem:2dd poprawione na 4dd	!	!	!
8r	.	8ryy	.	2G\	o-	.	sf	2.B-\	no-	.	.	(4f\	no-	.	4dd\	-tio-	sf >	(4f\	sf	(8g^/L	.	(8dd^/L	f	1b-	1g	f >	(4f\	f	1gg	1b-	sf	(4dd\	sf >	(2bb-\	sf >
8G\L	.	8G\Lyy	.	.	.	.	.	.	.	.	.	.	.	.	.	.	.	.	.	8G/)	.	8d/)	.	.	.	.	.	>	.	.	>	.	.	.	.
!	!	!	!	!	!	!	!	!	!	!	!	!	!	!	!	!	!	!	!	!	!	!LO:TX:t=P:problem:8dd poprawione na 8cc	!	!	!	!	!	!	!	!	!	!	!	!	!
8B-\J	.	8B-\Jyy	.	.	.	.	.	.	.	.	.	4en\)	-[[bis]]-	.	4cc\	-nis	.	4en\	.	8g/|	.	8cc/	.	.	.	.	4en\	.	.	.	.	4cc\)	.	.	.
!	!	!	!	!	!	!	!	!	!	!	!	!	!	!	!	!	!	!	!	!	!	!LO:TX:t=P:problem:8dd poprawione na 8cc	!	!	!	!	!	!	!	!	!	!	!	!	!
8r	.	8ryy	.	.	.	.	.	.	.	.	.	.	.	.	.	.	]	.	.	8g/J|	.	8cc/J	.	.	.	.	.	.	.	.	.	.	.	.	.
!	!	!	!	!	!	!	!	!	!	!	!	!	!	!	!	!	!	!	!	!	!	!	!	!	!	!	!	!	!	!	!	!LO:TX:t=P:problem:4r poprawiona na 2r	!	!	!
8r	.	8ryy	.	4C/	-ra!	.	.	.	.	.	.	(4c\	-bis	.	4r	.	.	4c\	.	(8g^>/L	.	8cc^/L	.	.	.	.	4c\	.	.	.	.	2r	]	4b-\)	]
8C\L	.	8C\Lyy	.	.	.	.	.	.	.	.	.	.	.	.	.	.	.	.	.	8c/)	.	8g/	.	.	.	.	.	.	.	.	.	.	.	.	.
!	!	!	!	!	!	!	!	!	!	!	!	!LO:TX:t=P:problem:4r poprawione na 4d	!	!	!LO:TX:a:t=P:problem:brak początku ligatury	!	!	!	!	!	!	!	!	!	!	!	!	!	!	!	!	!	!	!	!
8G\J	.	8G\Jyy	.	4r	.	.	.	4B-\	-bis	.	.	4d\)	.	.	([<4cc\	o-	.	4d\)	.	8g/|	.	8cc/	.	.	.	.	4d\)	]]	.	.	.	.	.	4r	.
8r	.	8ryy	.	.	.	.	.	.	.	.	.	.	.	.	.	.	.	.	.	8g/J|	.	8cc/J	.	.	.	]	.	.	.	.	]	.	.	.	.
*	*	*	*	*	*	*	*	*	*	*	*	*	*	*	*	*	*	*	*	*	*	*	*	*v	*v	*	*	*	*	*	*	*	*	*	*
!!LO:LB:g=original
=55	=55	=55	=55	=55	=55	=55	=55	=55	=55	=55	=55	=55	=55	=55	=55	=55	=55	=55	=55	=55	=55	=55	=55	=55	=55	=55	=55	=55	=55	=55	=55	=55	=55	=55
!LO:TX:t=Col Vcello.	!	!	!	!	!	!	!	!	!	!	!	!	!	!	!	!	!	!	!	!	!	!	!	!	!	!	!	!	!	!	!	!	!	!
8ryy	.	8r	.	2F\	o-	.	.	2A\	o-	.	.	1f	o-	.	4.cc\]	.	.	8r	.	8r	.	(4.cc\	.	8r	.	(4e-\	.	1cc	2a\	]	1r	.	[1ff	p
*	*	*	*	*	*	*	*	*	*	*	*	*	*	*	*	*	*	*tremolo	*	*tremolo	*	*	*	*tremolo	*	*	*	*	*	*	*	*	*	*
8F\Lyy	.	8F\L	.	.	.	.	.	.	.	.	.	.	.	.	.	.	.	8c/L	.	8e-/L	.	.	.	8ff 8f\L	.	.	.	.	.	.	.	.	.	.
8A\Jyy	.	8A\J	.	.	.	.	.	.	.	.	.	.	.	.	.	.	.	8c/	.	8e-/	.	.	.	8ff 8f\	.	4c\	.	.	.	.	.	.	.	.
8ryy	.	8r	.	.	.	.	.	.	.	.	.	.	.	.	8dd\)	.	.	8c/J	.	8e-/J	.	8dd\	.	8ff 8f\J	.	.	.	.	.	.	.	.	.	.
8ryy	.	8r	.	2AA/	-ra	.	.	2c\	-ra	.	.	.	.	.	4ff\	-ra	.	8e-/L	.	(8cc/L	.	4ff\	.	8ff 8f\L	.	4A\)	.	.	[2f\	.	.	.	.	.
!	!	!	!	!	!	!	!	!	!	!	!	!	!	!	!	!	!	!	!	!LO:TX:t=P:problem:8e poprawione na 8f	!	!	!	!	!	!	!	!	!	!	!	!	!	!
8AA/Lyy	.	8AA/L	.	.	.	.	.	.	.	.	.	.	.	.	.	.	.	8c/	.	8f/)	.	.	.	8ff 8f\	.	.	.	.	.	.	.	.	.	.
!	!	!	!	!	!	!	!	!	!	!	!	!	!	!	!	!	!	!	!	!LO:TX:t=P:problem:8e poprawione na 8f	!	!	!	!	!	!	!	!	!	!	!	!	!	!
8C/Jyy	.	8C/J	.	.	.	.	.	.	.	.	.	.	.	.	4ee-\	pro	.	8c/	.	8f/	.	4ee-\	.	8ff 8f\	.	(4F\	.	.	.	.	.	.	.	.
!	!	!	!	!	!	!	!	!	!	!	!	!	!	!	!	!	!	!	!	!LO:TX:t=P:problem:8e poprawione na 8f	!	!	!	!	!	!	!	!	!	!	!	!	!	!
8ryy	.	8r	.	.	.	.	.	.	.	.	.	.	.	.	.	.	.	8c/J	.	8f/J	.	.	.	8ff 8f\J	.	.	.	.	.	.	.	.	.	.
=56	=56	=56	=56	=56	=56	=56	=56	=56	=56	=56	=56	=56	=56	=56	=56	=56	=56	=56	=56	=56	=56	=56	=56	=56	=56	=56	=56	=56	=56	=56	=56	=56	=56	=56
*	*	*	*	*	*	*	*	*	*	*	*	*	*	*	*	*	*	*	*	*	*	*	*	*rep	*	*	*	*	*	*	*	*	*	*
!	!	!	!	!	!	!	!	!	!	!	!	!	!	!	!	!	!	!	!	!LO:TX:t=P:problem:usunięte 2d	!	!	!	!	!	!LO:TX:t=P:problem:wykreślone 1BB-	!	!LO:TX:t=P:problem:cl I:4dd poprawione na 2cc	!	!	!	!	!	!
8ryy	.	8r	.	2BB-/	o-	.	.	2B-\	o-	.	.	2f\	-ra	.	(4ee-\	no-	.	8B-L	.	8f/L	.	4ee-\	.	8r	.	4B-\)	.	2b-/	4f\]	.	1r	.	1ff_	.
8BB-/Lyy	.	8BB-/L	.	.	.	.	.	.	.	.	.	.	.	.	.	.	.	8B-	.	8f/J	.	.	.	8ff 8f\L	.	.	.	.	.	.	.	.	.	.
8D/Jyy	.	8D/J	.	.	.	.	.	.	.	.	.	.	.	.	4dd\)	.	.	8B-	.	8d/L	.	4dd\	.	8ff 8f\	.	(4BB-/	.	.	4d\	.	.	.	.	.
8ryy	.	8r	.	.	.	.	.	.	.	.	.	.	.	.	.	.	.	8B-	.	8d/J	.	.	.	8ff 8f\J	.	.	.	.	.	.	.	.	.	.
!	!	!	!	!	!	!	!	!	!	!	!	!	!	!	!	!	!	!	!	!	!	!	!	!	!	!	!	!LO:TX:t=P:problem:cl I:4cc poprawione na 4b	!	!	!	!	!	!
8ryy	.	8r	.	4C/	-ra	.	.	4e-\	-ra	.	.	2f\	pro	.	4a\	-bis	.	8B-	.	8e-/L	.	4a\	.	8ff 8f\L	.	4C/	.	4a/	4e-\	.	.	.	.	.
8F/Lyy	.	8F/L	.	.	.	.	.	.	.	.	.	.	.	.	.	.	.	8B-	.	8e-/J	.	.	.	8ff 8f\	.	.	.	.	.	.	.	.	.	.
!	!	!	!	!	!	!	!	!	!	!	!	!	!	!	!	!	!	!	!	!	!	!	!	!	!	!	!	!LO:TX:t=P:problem:cl I:4dd poprawione na 4cc	!	!	!	!	!	!
8BB-/Jyy	.	8BB-/J	.	4D/	pro	.	.	4d\	pro	.	.	.	.	.	4b-\	pro	.	8B-	.	8f/L	.	4b-\	.	8ff 8f\	.	4D/)	.	4b-/	4f\	.	.	.	.	.
8ryy	.	8r	.	.	.	.	.	.	.	.	.	.	.	.	.	.	.	8B-J	.	8f/J	.	.	.	8ff 8f\J	.	.	.	.	.	.	.	.	.	.
*	*	*	*	*	*	*	*	*	*	*	*	*	*	*	*	*	*	*	*	*	*	*	*	*Xrep	*	*	*	*	*	*	*	*	*	*
*	*	*	*	*	*	*	*	*	*	*	*	*	*	*	*	*	*	*	*	*	*	*	*	*Xtremolo	*	*	*	*	*	*	*	*	*	*
=57	=57	=57	=57	=57	=57	=57	=57	=57	=57	=57	=57	=57	=57	=57	=57	=57	=57	=57	=57	=57	=57	=57	=57	=57	=57	=57	=57	=57	=57	=57	=57	=57	=57	=57
*	*	*	*	*	*	*	*	*	*	*	*	*	*	*	*	*	*	*	*	*	*	*	*	*^	*	*	*	*	*	*	*	*	*	*
*	*	*	*	*	*	*	*	*	*	*	*	*	*	*	*	*	*	*	*	*	*	*	*	*	*	*	*	*	*	*2\left	*	*	*	*	*
!	!	!	!	!	!	!	!	!	!	!	!	!	!	!	!	!	!	!	!	!	!	!	!	!LO:TX:t=P:problem:wykreślony znak powtórki	!	!	!	!	!	!	!	!	!	!	!
8ryy	.	8r	.	2E-\	no-	.	.	(4c\	no-	.	.	2g\	no-	.	([2cc\	no-	.	8B-/L	.	8g/L	.	4cc\)	.	2b-/	2b-\	.	(2E-\	.	(4cc/	2c\	.	1r	.	(1ff]	.
8E-\Lyy	.	8E-\L	.	.	.	.	.	.	.	.	.	.	.	.	.	.	.	8B-/	.	8g/	.	.	.	.	.	.	.	.	.	.	.	.	.	.	.
8G\Jyy	.	8G\J	.	.	.	.	.	4B-\	.	.	.	.	.	.	.	.	.	8B-/	.	8g/	.	4g\	.	.	.	.	.	.	4g/	.	.	.	.	.	.
8ryy	.	8r	.	.	.	.	.	.	.	.	.	.	.	.	.	.	.	8B-/J	.	8g/J	.	.	.	.	.	.	.	.	.	.	.	.	.	.	.
*	*	*	*	*	*	*	*	*	*	*	*	*	*	*	*	*	*	*	*	*	*	*	*	*	*	*	*2\left	*	*	*	*	*	*	*	*
!	!	!	!	!	!	!	!	!	!	!	!	!	!	!	!	!	!	!	!	!	!	!	!	!	!	!	!LO:TX:t=P:problem:4F poprawione na 2F	!	!	!	!	!	!	!	!
8ryy	.	8r	.	2F\	.	.	.	4..A\	.	.	.	2f\	.	.	4..cc\]	.	.	8e-\L	.	8g/L	.	4..a\	.	2f/	2f\	.	2F\)	.	4..a/	4..e-\	.	.	.	.	.
8F\Lyy	.	8F\L	.	.	.	.	.	.	.	.	.	.	.	.	.	.	.	8e-\	.	8g/	.	.	.	.	.	.	.	.	.	.	.	.	.	.	.
8F\Jyy	.	8F\J	.	.	.	.	.	.	.	.	.	.	.	.	.	.	.	8e-\	.	8g/	.	.	.	.	.	.	.	.	.	.	.	.	.	.	.
8ryy	.	8r	.	.	.	.	.	.	.	.	.	.	.	.	.	.	.	8e-\J	.	8g/J	.	.	.	.	.	.	.	.	.	.	.	.	.	.	.
.	.	.	.	.	.	.	.	16B-\)	.	.	.	.	.	.	16b-\)	.	.	.	.	.	.	16b-\	.	.	.	.	.	.	16b-/)	16d\	.	.	.	.	.
*	*	*	*	*	*	*	*	*	*	*	*	*	*	*	*	*	*	*Xtremolo	*	*Xtremolo	*	*	*	*	*	*	*	*	*	*	*	*	*	*	*
=58	=58	=58	=58	=58	=58	=58	=58	=58	=58	=58	=58	=58	=58	=58	=58	=58	=58	=58	=58	=58	=58	=58	=58	=58	=58	=58	=58	=58	=58	=58	=58	=58	=58	=58	=58
8ryy	.	8r	.	8B-\	-bis.	.	.	8B-\	-bis.	.	.	8d\	-bis	.	8b-\	-bis	.	8r	.	8r	.	4b-\	.	4B-/	4B-\	.	4B-\	.	4b-/	4d\	.	1r	.	4b-\)	.
8F\Lyy	.	8F\L	.	8r	.	.	.	8r	.	.	.	8r	.	.	8r	.	.	8B-/L	.	8d/L	.	.	.	.	.	.	.	.	.	.	.	.	.	.	.
!	!	!	!	!	!	!	!	!LO:TX:a:t=Solo.	!	!	!	!LO:TX:a:i:t=Solo.	!	!	!LO:TX:a:i:t=Solo.	!	!	!	!	!	!	!	!	!	!	!	!	!	!	!	!	!	!	!	!
8B-\Jyyyy	.	8B-\J	.	4r	.	.	.	2B-\	o-	.	.	2f\	o-	.	2dd\	o-	.	8B-/	.	8d/	.	4r	.	4r	4ryy	.	4r	.	4r	4ryy	.	.	.	4r	.
8ryy	.	8r	.	.	.	.	.	.	.	.	.	.	.	.	.	.	.	8B-/J	.	8d/J	.	.	.	.	.	.	.	.	.	.	.	.	.	.	.
8ryy	.	8r	.	2r	.	.	.	.	.	.	.	.	.	.	.	.	.	(8d^<\L	.	(8f/L	.	2r	.	2r	2ryy	.	2r	.	2r	2ryy	.	.	.	2r	.
8F\Lyy	.	8F\L	.	.	.	.	.	.	.	.	.	.	.	.	.	.	.	8B-\)	.	8d/)	.	.	.	.	.	.	.	.	.	.	.	.	.	.	.
8B-\Jyy	.	8B-\J	.	.	.	.	.	4B-\	-ra,	.	.	4d\	-ra	.	4b-\	-ra	.	8B-\	.	8d/	.	.	.	.	.	.	.	.	.	.	.	.	.	.	.
8ryy	.	8r	.	.	.	.	.	.	.	.	.	.	.	.	.	.	.	8B-\J	.	8d/J	.	.	.	.	.	.	.	.	.	.	.	.	.	.	.
*	*	*	*	*	*	*	*	*	*	*	*	*	*	*	*	*	*	*	*	*	*	*	*	*v	*v	*	*	*	*v	*v	*	*	*	*	*
=59	=59	=59	=59	=59	=59	=59	=59	=59	=59	=59	=59	=59	=59	=59	=59	=59	=59	=59	=59	=59	=59	=59	=59	=59	=59	=59	=59	=59	=59	=59	=59	=59	=59
*rep	*	*rep	*	*	*	*	*	*	*	*	*	*	*	*	*	*	*	*rep	*	*rep	*	*	*	*	*	*	*	*	*	*	*	*	*
8ryy	.	8r	.	1r	.	.	.	4r	.	.	.	4r	.	.	4r	.	.	8r	.	8r	.	1ryy	.	1r	.	1r	.	1r	.	1r	.	1r	.
8F\Lyy	.	8F\L	.	.	.	.	.	.	.	.	.	.	.	.	.	.	.	8B-/L	.	8d/L	.	.	.	.	.	.	.	.	.	.	.	.	.
8B-\Jyy	.	8B-\J	.	.	.	.	.	2B-\	o-	.	.	2d\	o-	.	2b-\	o-	.	8B-/	.	8d/	.	.	.	.	.	.	.	.	.	.	.	.	.
8ryy	.	8r	.	.	.	.	.	.	.	.	.	.	.	.	.	.	.	8B-/J	.	8d/J	.	.	.	.	.	.	.	.	.	.	.	.	.
8ryy	.	8r	.	.	.	.	.	.	.	.	.	.	.	.	.	.	.	(8d^<\L	.	(8f/L	.	.	.	.	.	.	.	.	.	.	.	.	.
8F\Lyy	.	8F\L	.	.	.	.	.	.	.	.	.	.	.	.	.	.	.	8B-\)	.	8d/)	.	.	.	.	.	.	.	.	.	.	.	.	.
8B-\Jyy	.	8B-\J	.	.	.	.	.	4B-\	-ra	.	.	4d\	-ra	.	4f/	-ra	.	8B-\	.	8d/	.	.	.	.	.	.	.	.	.	.	.	.	.
8ryy	.	8r	.	.	.	.	.	.	.	.	.	.	.	.	.	.	.	8B-\J	.	8d/J	.	.	.	.	.	.	.	.	.	.	.	.	.
*Xrep	*	*Xrep	*	*	*	*	*	*	*	*	*	*	*	*	*	*	*	*Xrep	*	*Xrep	*	*	*	*	*	*	*	*	*	*	*	*	*
!!LO:LB:g=original
=60	=60	=60	=60	=60	=60	=60	=60	=60	=60	=60	=60	=60	=60	=60	=60	=60	=60	=60	=60	=60	=60	=60	=60	=60	=60	=60	=60	=60	=60	=60	=60	=60	=60
!	!	!	!	!LO:TX:a:i:t=tutti.	!	!	!	!LO:TX:a:i:t=tutti.	!	!	!	!LO:TX:a:i:t=tutti.	!	!	!	!	!	!LO:TX:a:t=pizzi.	!	!LO:TX:a:t=pizzi.	!	!	!	!	!LO:DY:rj:t=fp.	!	!	!	!	!	!	!	!
8ryy	.	8r	.	4r	.	.	.	4r	.	.	.	4r	.	.	4r	.	.	8r	.	8r	.	8r	.	2ff 2f\	fp	1r	.	1r	.	1r	.	1r	.
8B-\Lyy	.	8B-\L	.	.	.	.	.	.	.	.	.	.	.	.	.	.	.	8B-\L	.	8B-/L	.	8B-/L	.	.	.	.	.	.	.	.	.	.	.
!	!	!	!	!	!	!	!	!LO:TX:t=P:problem:4F poprawione na 4B-	!	!	!	!LO:TX:t=P:problem:4f poprawione na 4d	!	!	!LO:TX:a:i:t=tutti.	!	!	!	!	!	!	!	!	!	!	!	!	!	!	!	!	!	!
8d\yy	.	8d\	.	4F\	o-	.	.	4B-\	o-	.	.	4d\	o-	.	4f/	o-	.	8d\	.	8d/	.	8d/	.	.	.	.	.	.	.	.	.	.	.
8F\Jyy	.	8F\J	.	.	.	.	.	.	.	.	.	.	.	.	.	.	.	8f\J	.	8f/J	.	8f/J	.	.	.	.	.	.	.	.	.	.	.
!	!	!	!	!	!	!	!	!LO:TX:t=P:problem:4F poprawione na 4B-	!	!	!	!LO:TX:t=P:problem:4f poprawione na 4d	!	!	!	!	!	!	!	!	!	!	!	!	!	!	!	!	!	!	!	!	!
8B-\Lyy	.	8B-\L	.	4F\	-ra	.	.	4B-\	-ra	.	.	4d\	-ra	.	4f/	-ra	.	8B-\L	.	8b-/L	.	8b-/L	.	4ff 4f\	.	.	.	.	.	.	.	.	.
8D\yy	.	8D\	.	.	.	.	.	.	.	.	.	.	.	.	.	.	.	8d\	.	8d/	.	8d/	.	.	.	.	.	.	.	.	.	.	.
!	!	!	!	!	!	!	!	!LO:TX:t=P:problem:4F poprawione na 4B-	!	!	!	!LO:TX:t=P:problem:4f poprawione na 4d	!	!	!	!	!	!	!	!	!	!	!	!	!	!	!	!	!	!	!	!	!
8F\yy	.	8F\	.	4F\	pro	.	.	4B-\	pro	.	.	4d\	pro	.	4f/	pro	.	8f\	.	8f/	.	8f/	.	4ff 4f\	.	.	.	.	.	.	.	.	.
8BB-\Jyy	.	8BB-\J	.	.	.	.	.	.	.	.	.	.	.	.	.	.	.	8B-\J	.	8B-/J	.	8B-/J	.	.	.	.	.	.	.	.	.	.	.
=61	=61	=61	=61	=61	=61	=61	=61	=61	=61	=61	=61	=61	=61	=61	=61	=61	=61	=61	=61	=61	=61	=61	=61	=61	=61	=61	=61	=61	=61	=61	=61	=61	=61
*	*	*	*	*	*	*	*	*	*	*	*	*	*	*	*	*	*	*	*	*	*	*	*	*	*	*	*	*^	*	*	*	*	*
!	!	!	!	!	!	!	!LO:DY:a	!	!	!	!LO:DY:a	!	!	!LO:DY:a	!	!	!LO:DY:a	!	!	!	!	!	!	!	!	!	!	!	!	!	!	!	!	!
1r	.	1r	.	1F	no-	.	ppp	1c	no-	.	ppp	1e-	no-	ppp	1a	no-	ppp	4F/	.	4f/	.	4f/	.	(1cc [1f	ppp	(1FF	ppp	(1cc	(1a	ppp	(1ff	ppp	(1aa	ppp
.	.	.	.	.	.	.	.	.	.	.	.	.	.	.	.	.	.	4r	.	4r	.	4r	.	.	.	.	.	.	.	.	.	.	.	.
.	.	.	.	.	.	.	.	.	.	.	.	.	.	.	.	.	.	2r	.	2r	.	2r	.	.	.	.	.	.	.	.	.	.	.	.
=62	=62	=62	=62	=62	=62	=62	=62	=62	=62	=62	=62	=62	=62	=62	=62	=62	=62	=62	=62	=62	=62	=62	=62	=62	=62	=62	=62	=62	=62	=62	=62	=62	=62	=62
8r	.	8r	.	4BB-/	-bis.	.	.	4B-\	-bis	.	.	4d\	-bis	.	4b-\	-bis.	.	8r	.	4r	.	4r	.	4dd 4f/])	.	4BB-/)	.	4b-/)	4b-\)	.	4dd\)	.	4bb-\)	.
8F\L	.	8FF/L	.	.	.	.	.	.	.	.	.	.	.	.	.	.	.	8F/L	.	.	.	.	.	.	.	.	.	.	.	.	.	.	.	.
!	!	!	!	!	!	!	!	!	!	!	!	!	!	!	!	!	!	!	!	!LO:TX:b:t=arco.	!	!	!	!	!	!	!	!	!	!	!	!	!	!
8BB-\J	.	8BB-/J	.	4r	.	.	.	4r	.	.	.	4r	.	.	4r	.	.	8F/	.	2d/	.	(2f^/	.	4r	.	4r	.	4r	4ryy	.	4r	.	4r	.
8r	.	8r	.	.	.	.	.	.	.	.	.	.	.	.	.	.	.	8F/J	.	.	.	.	.	.	.	.	.	.	.	.	.	.	.	.
8r	.	8r	.	2r	.	.	.	2r	.	.	.	2r	.	.	2r	.	.	8F/L	.	.	.	.	.	2r	.	8r	p	2r	2ryy	.	2r	.	2r	.
8F\L	.	8FF/L	.	.	.	.	.	.	.	.	.	.	.	.	.	.	.	8F/	.	.	.	.	.	.	.	(8F\L	.	.	.	.	.	.	.	.
8BB-\J	.	8BB-/J	.	.	.	.	.	.	.	.	.	.	.	.	.	.	.	8.G^/	.	4B-/	.	4d/	.	.	.	8.G^<\	.	.	.	.	.	.	.	.
8r	.	8r	.	.	.	.	.	.	.	.	.	.	.	.	.	.	.	.	.	.	.	.	.	.	.	.	.	.	.	.	.	.	.	.
.	.	.	.	.	.	.	.	.	.	.	.	.	.	.	.	.	.	16F/Jk	.	.	.	.	.	.	.	16F\Jk	.	.	.	.	.	.	.	.
*	*	*	*	*	*	*	*	*	*	*	*	*	*	*	*	*	*	*	*	*	*	*	*	*	*	*	*	*v	*v	*	*	*	*	*
=63	=63	=63	=63	=63	=63	=63	=63	=63	=63	=63	=63	=63	=63	=63	=63	=63	=63	=63	=63	=63	=63	=63	=63	=63	=63	=63	=63	=63	=63	=63	=63	=63	=63
!	!	!LO:TX:b:t=arco.	!	!	!	!	!	!	!	!	!	!	!	!	!	!	!	!	!	!	!	!	!	!	!	!	!	!	!	!	!	!	!
1BB-;	.	1BB-;	.	1r;	.	.	.	1r;	.	.	.	1r;	.	.	1r;	.	.	1F;	.	1d;	.	1b-;)	.	1r	.	1BB-;)	.	1r;	.	1r;	.	1r;	.
=||	=||	=||	=||	=||	=||	=||	=||	=||	=||	=||	=||	=||	=||	=||	=||	=||	=||	=||	=||	=||	=||	=||	=||	=||	=||	=||	=||	=||	=||	=||	=||	=||	=||
*-	*-	*-	*-	*-	*-	*-	*-	*-	*-	*-	*-	*-	*-	*-	*-	*-	*-	*-	*-	*-	*-	*-	*-	*-	*-	*-	*-	*-	*-	*-	*-	*-	*-
!!!system-decoration: (<g1,g2,p5>{g3}<g4>)
!!!RDF**kern: > = above
!!!RDF**kern: < = below
!!!RDF**kern: | = vertical stroke
!!!RDF**dynam: p = "p."
!!!RDF**dynam: pp = "pp."
!!!RDF**dynam: ppp = "ppp."
!!!AIN: 1 cbass 1 cello 1 clars 1 cor 4 empty 1 fagot 1 flt 1 oboe 1 viola 2 violn
!!!ENC: Marta Lawrence
!!!END: 2021-04-21
!!!ENC: Katarzyna Serwa
!!!END: 2021-04-04
